!!!!SEGMENT: pl-cz--iii-273--005_gotschalk-filip--vesperae-in-d-lauda.krn
!!!cenid: 18xx:150
!!!COM: Gotschalk, Filip
!!!COM-rismid: pe30020320
!!!CDT: 1760-1809
!!!CNT:
!!!OPR: Vesperae in D
!!!OTL: Lauda
!!!OMV: 005
!!!PDT:
!!!AGN: Sacred; Vespers
!!!SMS-siglum: PL-CZ
!!!SMS-shelfmark: III-273
!!!SMS-shelfwork: 001-005 M
!!!NIFC-rismid:
!!!URL-scan: http://repozytorium.nifc.pl/skany/pl-cz-nut--iii-273
!!!ONB-nifc:
**kern	**fba	**dynam	**kern	**dynam	**kern	**dynam	**kern	**text	**kern	**text	**kern	**text	**kern	**text	**kern	**kern
*part9	*	*part9	*part8	*part8	*part7	*part7	*part6	*part6	*part5	*par5	*part4	*part4	*part3	*part3	*part2	*part1
*staff9	*	*	*staff8	*	*staff7	*	*staff6	*staff6	*staff5	*staff5	*staff4	*staff4	*staff3	*staff3	*staff2	*staff1
*I"Organo	*	*	*I"Violino Secondo	*	*I"Violino Primo	*	*I"Basſo.	*	*I"Tenore.	*	*I"Alto.	*	*I"Canto.	*	*I"Clarino Secondo in D	*I"Clarino Primo in D
*I'Org	*	*	*I'Vn II	*	*I'Vn I	*	*I'B	*	*I'T	*	*I'A	*	*I'C	*	*I'Clno II	*I'Clno I
*clefF4	*	*	*clefG2	*	*clefG2	*	*clefF4	*	*clefC4	*	*clefC3	*	*clefC1	*	*clefG2	*clefG2
*	*	*	*	*	*	*	*	*	*	*	*	*	*	*	*ITrd-1c-2	*ITrd-1c-2
*k[f#c#]	*	*	*k[f#c#]	*	*k[f#c#]	*	*k[f#c#]	*	*k[f#c#]	*	*k[f#c#]	*	*k[c#f#]	*	*k[f#c#]	*k[f#c#]
*D:	*	*	*D:	*	*D:	*	*D:	*	*D:	*	*D:	*	*D:	*	*	*
*M4/4	*	*	*M4/4	*	*M4/4	*	*M4/4	*	*M4/4	*	*M4/4	*	*M4/4	*	*M4/4	*M4/4
*met(c)	*	*	*met(c)	*	*met(c)	*	*met(c)	*	*met(c)	*	*met(c)	*	*met(c)	*	*met(c)	*met(c)
=1	=1	=1	=1	=1	=1	=1	=1	=1	=1	=1	=1	=1	=1	=1	=1	=1
*8\right	*	*below	*	*	*4\right	*below	*	*	*	*	*	*	*	*	*	*
!LO:TX:a:i:B:t=Allegro.	!	!	!LO:TX:a:i:B:t=Allegro	!	!LO:TX:a:i:B:t=Allegro.	!	!LO:TX:a:i:t=Solo.	!	!LO:TX:a:t=Allegro	!	!LO:TX:a:t=Allegro.	!	!LO:TX:a:t=Allegro	!	!LO:TX:a:i:B:t=Allegro	!LO:TX:a:i:B:t=Allegro
!	!	!	!	!LO:DY:t=pia	!	!	!	!	!LO:TX:a:t=8	!	!LO:TX:a:t=8	!	!LO:TX:a:t=8	!	!	!
8d\L	.	.	(8f#/L	p	4dd\	.	4d\	Lau-	00r	.	00r	.	00r	.	4f#/	4dd\
8A\J	.	.	8a/)	.	.	.	.	.	.	.	.	.	.	.	.	.
*	*	*	*	*	*8\right	*	*	*	*	*	*	*	*	*	*	*
8d\L	.	.	(8f#/	.	8dd\L	.	8D/	-da	.	.	.	.	.	.	8f#/L	8dd\L
8A\J	.	.	8a/J)	.	8dd\J	.	8D/	Je-	.	.	.	.	.	.	8f#/J	8dd\J
.	.	.	.	.	16qqff#/	.	.	.	.	.	.	.	.	.	.	.
*	*	*	*	*	*	*	*4\right	*	*	*	*	*	*	*	*	*
8c#\L	6	.	(8A/L 8g	.	4ee\	.	4E\	-ru-	.	.	.	.	.	.	4a/	4ee\
8A\	.	.	8a/)	.	.	.	.	.	.	.	.	.	.	.	.	.
8c#\	.	.	(8A/ 8g	.	8dd\L	.	8D/	-sa-	.	.	.	.	.	.	8f#/L	8dd\L
8A\J	.	.	8a/J)	.	8ee\J	.	8E/	-lem	.	.	.	.	.	.	8a/J	8ee\J
=2	=2	=2	=2	=2	=2	=2	=2	=2	=2	=2	=2	=2	=2	=2	=2	=2
!LO:TX:a:t=P:problem:mixed beam	!	!	!	!	!	!	!	!	!	!	!	!	!	!	!	!
8d/L	3	.	(8f#/L	.	4.ff#\	.	4.F#\	Do-	.	.	.	.	.	.	4.dd\	4.ff#\
8D/	.	.	8a/)	.	.	.	.	.	.	.	.	.	.	.	.	.
8D/	.	.	(8e/	.	.	.	.	.	.	.	.	.	.	.	.	.
!LO:SIC:o:s=:v:cyfrowanie pod dźwiękiem	!	!	!	!	!	!	!	!	!	!	!	!	!	!	!	!
*	*	*	*	*	*	*	*8\right	*	*	*	*	*	*	*	*	*
8D\J	3	.	8a/J)	.	8gg\	.	8G\	-mi-	.	.	.	.	.	.	8ee\	8gg\
*2\right	*	*	*	*	*	*	*	*	*	*	*	*	*	*	*	*
*tremolo	*	*	*	*	*	*	*2\right	*	*	*	*	*	*	*	*	*
!	!	!	!LO:LB:g=original	!	!	!	!	!	!	!	!	!	!	!	!	!
*	*	*	*2\right	*	*	*	*	*	*	*	*	*	*	*	*	*
*	*	*	*tremolo	*	*	*	*	*	*	*	*	*	*	*	*	*
8F#\L	.	.	8dd\L	.	4aa\	.	2A\	-num	.	.	.	.	.	.	4ff#\	4aa\
8F#\	.	.	8dd\	.	.	.	.	.	.	.	.	.	.	.	.	.
8F#\	.	.	8dd\	.	8r	.	.	.	.	.	.	.	.	.	4r	4r
8F#\J	.	.	8dd\J	.	8dd\	.	.	.	.	.	.	.	.	.	.	.
!	!	!	!	!	!LO:LB:g=original	!	!	!	!	!	!	!	!	!	!	!
=3	=3	=3	=3	=3	=3	=3	=3	=3	=3	=3	=3	=3	=3	=3	=3	=3
!	!	!	!	!	!	!	!	!	!	!	!	!	!	!	!LO:TX:a:t=2	!LO:TX:a:t=2
8G\L	.	.	8dd\L	.	4bb\	.	4B\	lau-	.	.	.	.	.	.	0r	0r
8G\	.	.	8dd\	.	.	.	.	.	.	.	.	.	.	.	.	.
8G\	.	.	8dd\	.	4bb\	.	4B\	-da	.	.	.	.	.	.	.	.
8G\J	.	.	8dd\J	.	.	.	.	.	.	.	.	.	.	.	.	.
8F#\L	.	.	8dd\L	.	8aa\L	.	8A\	De-	.	.	.	.	.	.	.	.
8F#\	.	.	8dd\	.	8bb\	.	8B\	-um	.	.	.	.	.	.	.	.
8F#\	.	.	8dd\	.	8ccc#\	.	8c#\	tu-	.	.	.	.	.	.	.	.
8F#\J	.	.	8dd\J	.	8ddd\J	.	8d\	-um	.	.	.	.	.	.	.	.
*Xtremolo	*	*	*Xtremolo	*	*	*	*	*	*	*	*	*	*	*	*	*
!	!	!	!	!	!	!	!LO:LB:g=original	!	!	!	!	!	!	!	!	!
=4	=4	=4	=4	=4	=4	=4	=4	=4	=4	=4	=4	=4	=4	=4	=4	=4
!LO:TX:a:t=P:problem:mixed beam	!	!	!	!	!	!	!	!	!	!	!	!	!	!	!	!
8E\L	.	.	8dd\	.	4.aa\	.	4.A\	Si-	.	.	.	.	.	.	.	.
8AA/	.	.	4dd\	.	.	.	.	.	.	.	.	.	.	.	.	.
8BB/	.	.	.	.	.	.	.	.	.	.	.	.	.	.	.	.
8C#/J	.	.	8ee\	.	8gg\	.	8G\	.	.	.	.	.	.	.	.	.
!LO:LB:g=original	!	!	!	!	!	!	!	!	!	!	!	!	!	!	!	!
8r	.	.	8dd\L	.	4ff#\	.	2F#\	-on	.	.	.	.	.	.	.	.
8D\L	.	.	8a\J	.	.	.	.	.	.	.	.	.	.	.	.	.
8F#\	.	.	8f#/L	.	8r	.	.	.	.	.	.	.	.	.	.	.
8A\J	.	.	8a/J	.	8a/	.	.	.	.	.	.	.	.	.	.	.
=5	=5	=5	=5	=5	=5	=5	=5	=5	=5	=5	=5	=5	=5	=5	=5	=5
!	!	!	!	!	!	!	!LO:TX:a:t=4	!	!	!	!	!	!	!	!	!
8d\L	.	.	(8f#/L	.	8dd\L	.	00r	.	00r	.	00r	.	00r	.	8f#/L	8dd\L
8A\	.	.	8a/)	.	8dd\J	.	.	.	.	.	.	.	.	.	8f#/J	8dd\J
.	.	.	.	.	16qqee/	.	.	.	.	.	.	.	.	.	.	.
8d\	.	.	(8f#/	.	8dd\L	.	.	.	.	.	.	.	.	.	4f#/	4dd\
*	*	*	*	*	*16\right	*	*	*	*	*	*	*	*	*	*	*
8A\J	.	.	8a/J)	.	16cc#\L	.	.	.	.	.	.	.	.	.	.	.
.	.	.	.	.	16dd\JJ	.	.	.	.	.	.	.	.	.	.	.
8c#\L	.	.	(8A/L 8g	.	4ee\	.	.	.	.	.	.	.	.	.	4a/	4ee\
8A\	.	.	8a/)	.	.	.	.	.	.	.	.	.	.	.	.	.
!	!	!	!	!	!LO:TUP:a:problem:klamra łukowa	!	!	!	!	!	!	!	!	!	!	!
8c#\	.	.	(8A/ 8g	.	12ee\L	.	.	.	.	.	.	.	.	.	8a/L	8ee\L
.	.	.	.	.	12ff#\	.	.	.	.	.	.	.	.	.	.	.
8A\J	.	.	8a/J)	.	.	.	.	.	.	.	.	.	.	.	8ee/J	8gg\J
.	.	.	.	.	12gg\J	.	.	.	.	.	.	.	.	.	.	.
!	!	!	!	!	!	!	!	!	!	!	!	!	!	!	!LO:LB:g=original	!
=6	=6	=6	=6	=6	=6	=6	=6	=6	=6	=6	=6	=6	=6	=6	=6	=6
8d\L	.	.	(8f#/L	.	4ff#\	.	.	.	.	.	.	.	.	.	4dd\	4ff#\
8D\	.	.	8a/)	.	.	.	.	.	.	.	.	.	.	.	.	.
8D\	.	.	(8f#/	.	(16ff#\LL	.	.	.	.	.	.	.	.	.	8dd\L	8ff#\L
.	.	.	.	.	16gg\	.	.	.	.	.	.	.	.	.	.	.
8D\J	.	.	8a/J)	.	16ff#\	.	.	.	.	.	.	.	.	.	8ee\J	8gg\J
.	.	.	.	.	16gg\JJ)	.	.	.	.	.	.	.	.	.	.	.
!	!	!	!LO:LB:g=original	!	!	!	!	!	!	!	!	!	!	!	!	!
8F#\L	.	.	8f#/L	.	4aa\	.	.	.	.	.	.	.	.	.	4ff#\	4aa\
8D\	.	.	8a/J	.	.	.	.	.	.	.	.	.	.	.	.	.
8F#\	.	.	8dd\L	.	8r	.	.	.	.	.	.	.	.	.	4r	4r
8A\J	.	.	8dd\J	.	8bb\	.	.	.	.	.	.	.	.	.	.	.
!	!	!	!	!	!LO:LB:g=original	!	!	!	!	!	!	!	!	!	!	!
=7	=7	=7	=7	=7	=7	=7	=7	=7	=7	=7	=7	=7	=7	=7	=7	=7
!	!	!	!	!	!	!	!	!	!	!	!	!	!	!	!LO:TX:a:t=2	!LO:TX:a:t=2
8F#\L	6	.	8dd\	.	8bb\L	.	.	.	.	.	.	.	.	.	0r	0r
8F#\	.	.	4dd\	.	8aa\	.	.	.	.	.	.	.	.	.	.	.
8E\	7	.	.	.	8bb\	.	.	.	.	.	.	.	.	.	.	.
8E\J	.	.	4dd\	.	8ccc#\J	.	.	.	.	.	.	.	.	.	.	.
8F#\L	6	.	.	.	8ddd\L	.	.	.	.	.	.	.	.	.	.	.
8G\	.	.	4dd\	.	8bb\	.	.	.	.	.	.	.	.	.	.	.
8F#\	6	.	.	.	8aa\	.	.	.	.	.	.	.	.	.	.	.
8B\J	6	.	8ee\	.	8gg\J	.	.	.	.	.	.	.	.	.	.	.
=8	=8	=8	=8	=8	=8	=8	=8	=8	=8	=8	=8	=8	=8	=8	=8	=8
*	*	*	*	*	*2\right	*	*	*	*	*	*	*	*	*	*	*
8A\L	6 4	.	2dd\	.	2ff#\	.	.	.	.	.	.	.	.	.	.	.
8G#X\	.	.	.	.	.	.	.	.	.	.	.	.	.	.	.	.
8A\	.	.	.	.	.	.	.	.	.	.	.	.	.	.	.	.
8G#\J	.	.	.	.	.	.	.	.	.	.	.	.	.	.	.	.
8A\L	5 3	.	(8cc#\L	.	4ee\	.	.	.	.	.	.	.	.	.	.	.
8Gn\	.	.	8b\	.	.	.	.	.	.	.	.	.	.	.	.	.
8F#\	.	.	8a\	.	4r	.	.	.	.	.	.	.	.	.	.	.
8E\J	.	.	8g\J)	.	.	.	.	.	.	.	.	.	.	.	.	.
!LO:LB:g=original	!	!	!	!	!	!	!	!	!	!	!	!	!	!	!	!
=9	=9	=9	=9	=9	=9	=9	=9	=9	=9	=9	=9	=9	=9	=9	=9	=9
!LO:TX:a:t=P:problem:mixed beam	!	!	!LO:TX:a:i:t=Tutti	!	!	!	!	!	!	!	!	!	!	!	!	!
!LO:TX:a:i:t=Tutti	!	!	!	!	!	!	!	!	!	!	!	!	!	!	!	!
8D\L	.	.	(8f#/L	.	4dd\	f	4d\	Lau-	8A/	Quo-	8d/	Quo-	8ff#\	Quo-	4f#/	4dd\
8AA/J	.	.	8a/	.	.	.	.	.	8A/	-ni-	8d/	-ni-	8ff#\	-ni-	.	.
8D\L	.	.	8f#/	.	8dd\L	.	8d\	-da	4A/	-am	8d/	-am	4ff#\	-am	8f#/L	8dd\L
!LO:TX:a:t=P:problem:mixed beam	!	!	!	!	!	!	!	!	!	!	!	!	!	!	!	!
8AA/J	.	.	8a/J)	.	8dd\J	.	8d\	Je-	.	.	8d/L	con-	.	.	8f#/J	8dd\J
.	.	.	.	.	8qqff#/	.	.	.	.	.	.	.	.	.	.	.
8C#/L	.	.	(8e/L	.	4ee\	.	8A\	-ru-	8A/	Con-	8e/J	.	8cc#\	con-	4a/	4ee\
8AA/	.	.	8a/)	.	.	.	8A\	-sa-	8A/	-fo-	8e/	-fir-	8cc#\	-fo-	.	.
!	!	!	!	!	!	!	!	!	!LO:LB:g=original	!	!	!	!	!	!	!
8C#/	.	.	(8e/	.	8dd\L	.	4A\	-lem	8A/	-ra-	8d/	-ma-	8b\	-ra-	8r	8r
8AA/J	.	.	8a/J)	.	8ee\J	.	.	.	8A/	-vit	8e/	-vit	8cc#\	-vit	8a/	8ee\
!	!	!	!	!	!	!	!	!	!	!	!	!	!LO:LB:g=original	!	!	!
=10	=10	=10	=10	=10	=10	=10	=10	=10	=10	=10	=10	=10	=10	=10	=10	=10
*tremolo	*	*	*	*	*	*	*	*	*	*	*4\right	*	*	*	*	*
8D\L	.	.	(8f#/L	.	4.ff#\	.	4.d\	Do-	2A/	se-	(4.f#\	se-	4.dd\	se-	4.dd\	4.ff#\
8D\	.	.	8a/)	.	.	.	.	.	.	.	.	.	.	.	.	.
8D\	.	.	(8e/	.	.	.	.	.	.	.	.	.	.	.	.	.
*	*	*	*	*	*	*	*	*	*	*	*8\right	*	*	*	*	*
8D\J	.	.	8a/J)	.	8gg\	.	8D/	-mi-	.	.	8g\	.	8ee\	.	8ee\	8gg\
!	!	!	!LO:LB:g=original	!	!	!	!	!	!	!	!	!	!	!	!	!
*	*	*	*tremolo	*	*	*	*	*	*	*	*	*	*	*	*	*
8F#\L	.	.	8dd\L	.	4aa\	.	2F#\	-num	4A/	-ras	4a\)	-ras	4ff#\	-ras	4ff#\	8aa\
8F#\	.	.	8dd\	.	.	.	.	.	.	.	.	.	.	.	.	8r
8F#\	.	.	8dd\	.	8r	.	.	.	4A/	por-	4d\	por-	4dd\	por-	4r	4r
8F#\J	.	.	8dd\J	.	8dd\	.	.	.	.	.	.	.	.	.	.	.
!	!	!	!	!	!LO:LB:g=original	!	!	!	!	!	!	!	!	!	!	!LO:LB:g=original
=11	=11	=11	=11	=11	=11	=11	=11	=11	=11	=11	=11	=11	=11	=11	=11	=11
*	*	*	*	*	*	*	*	*	*2\right	*	*	*	*2\right	*	*	*
!	!	!	!	!	!	!	!	!	!	!	!	!	!	!	!LO:TX:a:t=2	!LO:TX:a:t=2
8G\L	.	.	16dd\LL	.	4bb\	.	4G\	lau-	2d\	-ta-	4b\	-ta-	2dd\	-ta-	0r	0r
.	.	.	16dd\	.	.	.	.	.	.	.	.	.	.	.	.	.
8G\	.	.	16dd\	.	.	.	.	.	.	.	.	.	.	.	.	.
.	.	.	16dd\	.	.	.	.	.	.	.	.	.	.	.	.	.
8G\	.	.	16dd\	.	4bb\	.	4G\	-da	.	.	4b\	-rum	.	.	.	.
.	.	.	16dd\	.	.	.	.	.	.	.	.	.	.	.	.	.
8G\J	.	.	16dd\	.	.	.	.	.	.	.	.	.	.	.	.	.
.	.	.	16dd\JJ	.	.	.	.	.	.	.	.	.	.	.	.	.
!	!	!	!	!	!	!	!	!	!	!	!LO:LB:g=original	!	!	!	!	!
8F#\L	.	.	16dd\LL	.	8aa\L	.	8F#\	De-	4d\	-rum	8a\L	tu-	4dd\	-rum	.	.
.	.	.	16dd\	.	.	.	.	.	.	.	.	.	.	.	.	.
8F#\	.	.	16dd\	.	8bb\	.	8F#\	-um	.	.	8b\	.	.	.	.	.
.	.	.	16dd\	.	.	.	.	.	.	.	.	.	.	.	.	.
8F#\	.	.	16dd\	.	8ccc#\	.	8F#\	tu-	4d\	tu-	8cc#\	.	4dd\	por-	.	.
.	.	.	16dd\	.	.	.	.	.	.	.	.	.	.	.	.	.
8F#\J	.	.	16dd\	.	8ddd\J	.	8F#\	-um	.	.	8dd\J	.	.	.	.	.
.	.	.	16dd\JJ	.	.	.	.	.	.	.	.	.	.	.	.	.
*Xtremolo	*	*	*Xtremolo	*	*	*	*	*	*	*	*	*	*	*	*	*
!	!	!	!	!	!	!	!LO:LB:g=original	!	!	!	!	!	!	!	!	!
=12	=12	=12	=12	=12	=12	=12	=12	=12	=12	=12	=12	=12	=12	=12	=12	=12
!LO:TX:a:t=P:problem:mixed beam	!	!	!	!	!	!	!	!	!	!	!	!	!	!	!	!
8E\L	.	.	8dd\	.	4.aa\	.	(8E\L	Si-	4c#\	-a-	(4a\	-a-	(4ee\	-ta-	.	.
8AA/	.	.	4dd\	.	.	.	8A\	.	.	.	.	.	.	.	.	.
8BB/	.	.	.	.	.	.	8B\	.	4e\	.	8g\	.	4cc#\)	.	.	.
8C#/J	.	.	8ee\	.	8gg\	.	8c#\J)	.	.	.	4f#\)	-rum.	.	.	.	.
!	!	!	!LO:TX:a:t=P:problem:mixed beam	!	!	!	!	!	!	!	!	!	!	!	!	!
8r	.	.	8dd\L	.	4ff#\	.	2d\	-on	2A/	-rum	.	.	2dd\	-rum	.	.
8D\L	.	.	8a/J	.	.	.	.	.	.	.	8r	.	.	.	.	.
8F#\	.	.	8f#/L	.	8r	.	.	.	.	.	4r	.	.	.	.	.
8A\J	.	.	8a/J	.	8a/	.	.	.	.	.	.	.	.	.	.	.
=13	=13	=13	=13	=13	=13	=13	=13	=13	=13	=13	=13	=13	=13	=13	=13	=13
8d\L	.	.	16f#/LL	.	8dd\L	.	8d\	quo-	4A/	be-	4d\	be-	4ff#\	be-	8f#/L	8dd\L
.	.	.	16a/	.	.	.	.	.	.	.	.	.	.	.	.	.
8A\	.	.	16f#/	.	8dd\J	.	8d\	-ni-	.	.	.	.	.	.	8f#/J	8dd\J
.	.	.	16a/JJ	.	.	.	.	.	.	.	.	.	.	.	.	.
.	.	.	.	.	16qqee/	.	.	.	.	.	.	.	.	.	.	.
*	*	*	*rep	*	*	*	*	*	*	*	*	*	*	*	*	*
8d\	.	.	16f#/LL	.	8dd\L	.	4d\	-am	4A/	-ne-	4d\	-ne-	4ff#\	-ne-	4f#/	4dd\
.	.	.	16a/	.	.	.	.	.	.	.	.	.	.	.	.	.
8A\J	.	.	16f#/	.	16cc#\L	.	.	.	.	.	.	.	.	.	.	.
.	.	.	16a/JJ	.	16dd\JJ	.	.	.	.	.	.	.	.	.	.	.
*	*	*	*Xrep	*	*	*	*	*	*	*	*	*	*	*	*	*
8c#\L	.	.	(16e/LL	.	4ee\	.	8c#\	con-	4A/	-di-	4e\	-di-	4cc#\	-di-	4a/	4ee\
.	.	.	16a/	.	.	.	.	.	.	.	.	.	.	.	.	.
8A\	.	.	16e/	.	.	.	8c#\	-fir-	.	.	.	.	.	.	.	.
.	.	.	16a/JJ)	.	.	.	.	.	.	.	.	.	.	.	.	.
!	!	!	!	!	!	!	!	!	!	!	!LO:TUP:a:problem:klamra łukowa	!	!	!	!	!
*	*	*	*rep	*	*Xtuplet	*	*	*	*	*	*	*	*	*	*	*
8c#\	.	.	(16e/LL	.	12ee\L	.	8c#\	-ma-	4A/	-xit	12e\L	-xit	4cc#\	-xit	8r	8r
.	.	.	16a/	.	.	.	.	.	.	.	.	.	.	.	.	.
.	.	.	.	.	12ff#\	.	.	.	.	.	12f#\	.	.	.	.	.
8A\J	.	.	16e/	.	.	.	8c#\	-vit	.	.	.	.	.	.	8ee\	8gg\
.	.	.	.	.	12gg\J	.	.	.	.	.	12g\J	.	.	.	.	.
.	.	.	16a/JJ)	.	.	.	.	.	.	.	.	.	.	.	.	.
*	*	*	*Xrep	*	*	*	*	*	*	*	*	*	*	*	*	*
!LO:LB:g=original	!	!	!LO:LB:g=original	!	!	!	!	!	!LO:LB:g=original	!	!	!	!	!	!	!
=14	=14	=14	=14	=14	=14	=14	=14	=14	=14	=14	=14	=14	=14	=14	=14	=14
!LO:TX:a:t=P:problem:mixed beam	!	!	!	!	!	!	!LO:TX:a:t=P:problem:mixed beam	!	!	!	!	!	!	!	!	!
8d\L	.	.	16f#/LL	.	4ff#\	.	8d\L	se-	4.d\	fi-	4.f#\	fi-	4.dd\	fi-	4dd\	4ff#\
.	.	.	16a/	.	.	.	.	.	.	.	.	.	.	.	.	.
8D/	.	.	16f#/	.	.	.	8D/J	.	.	.	.	.	.	.	.	.
.	.	.	16a/JJ	.	.	.	.	.	.	.	.	.	.	.	.	.
*	*	*	*rep	*	*	*	*	*	*	*	*	*	*	*	*	*
8D/	.	.	16f#/LL	.	16ff#\LL	.	8D/	-ras	.	.	.	.	.	.	8dd\L	8ff#\L
.	.	.	16a/	.	16gg\	.	.	.	.	.	.	.	.	.	.	.
8D/J	.	.	16f#/	.	16ff#\	.	8D/	por-	8d\	-li-	8g\	-li-	8ee\	-li-	8ee\J	8gg\J
.	.	.	16a/JJ	.	16gg\JJ	.	.	.	.	.	.	.	.	.	.	.
*	*	*	*Xrep	*	*	*	*	*	*	*	*	*	*	*	*	*
8F#\L	.	.	16f#/LL	.	4aa\	.	8F#\L	-ta-	4d\	-is	4a\	-is	4ff#\	-is	4ff#\	4aa\
.	.	.	16a/	.	.	.	.	.	.	.	.	.	.	.	.	.
8D\	.	.	16f#/	.	.	.	8D\J	.	.	.	.	.	.	.	.	.
.	.	.	16a/JJ	.	.	.	.	.	.	.	.	.	.	.	.	.
8F#\	.	.	8dd\L	.	8r	.	8F#\	-rum	4d\	tu-	[4b\	tu-	(4b\	tu-	4r	4r
8G\J	.	.	8dd\J	.	8bb\	.	8G\	tu-	.	.	.	.	.	.	.	.
!	!	!	!	!	!LO:LB:g=original	!	!	!	!	!	!	!	!LO:LB:g=original	!	!	!
=15	=15	=15	=15	=15	=15	=15	=15	=15	=15	=15	=15	=15	=15	=15	=15	=15
!	!	!	!LO:SIC:o=:v:zamiast oktawy przenośnik oktawowy, tylko d2	!	!	!	!	!	!	!	!	!	!	!	!LO:TX:a:t=6	!LO:TX:a:t=6
!	!	!	!LO:TX:b:t=8	!	!	!	!	!	!	!	!	!	!	!	!	!
8F#\L	6	.	8dd	.	8bb\L	.	(4F#\	-a-	2d\	.	8b\L]	.	4dd\)	.	00r	00r
!	!	!	!LO:TX:b:t=_	!	!	!	!	!	!	!	!	!	!	!	!	!
8F#\	.	.	4dd	.	8aa\	.	.	.	.	.	8a\J	.	.	.	.	.
8E\	7	.	.	.	8bb\	.	4E\)	.	.	.	8b\L	-is	4dd\	-is	.	.
!	!	!	!LO:TX:b:t=_	!	!	!	!	!	!	!	!	!	!	!	!	!
8E\J	.	.	4dd	.	8ccc#\J	.	.	.	.	.	8cc#\Jk	.	.	.	.	.
!	!	!	!	!	!	!	!	!	!	!	!LO:LB:g=original	!	!	!	!	!
8F#\L	6	.	.	.	8ddd\L	.	(8F#\L	-rum	2d\	-is	8dd\L	tu-	4dd\	tu-	.	.
!	!	!	!LO:TX:b:t=_	!	!	!	!	!	!	!	!	!	!	!	!	!
8G\	.	.	4dd	.	8bb\	.	8G\J)	.	.	.	8b\J	.	.	.	.	.
8F#\	6	.	.	.	8aa\	.	8F#\L	tu-	.	.	8a\L	-is	8dd\L	-is	.	.
!	!	!	!LO:TX:b:t=_	!	!	!	!	!	!	!	!	!	!	!	!	!
8B\J	6	.	8dd	.	8gg\J	.	8B\J	.	.	.	8g\J	.	8ee\J	.	.	.
!	!	!	!	!	!	!	!LO:PB:g=original	!	!	!	!	!	!	!	!	!
=16	=16	=16	=16	=16	=16	=16	=16	=16	=16	=16	=16	=16	=16	=16	=16	=16
8A\L	6 4	.	2dd\	.	4ff#\	.	8A\L	-a-	2f#\	in	4f#/	in	2dd\	in	.	.
8G#X\	_ _	.	.	.	.	.	8G#X\	.	.	.	.	.	.	.	.	.
8A\	.	.	.	.	8aa\L	.	8A\	.	.	.	(8a\L	.	.	.	.	.
8G#\J	.	.	.	.	8ff#\J	.	8G#\J	.	.	.	8f#\J	.	.	.	.	.
*4\right	*	*	*	*	*	*	*	*	*	*	*	*	*	*	*	*
4A\	x #	.	4cc#\	.	4ee\	.	4A\	-rum.	4e\	te	4e\)	te.	4cc#\	te	.	.
4r	.	.	8cc#\L	.	8ee\L	.	4r	.	4r	.	4r	.	4r	.	.	.
.	.	.	8dd\J	.	8ff#\J	.	.	.	.	.	.	.	.	.	.	.
=17	=17	=17	=17	=17	=17	=17	=17	=17	=17	=17	=17	=17	=17	=17	=17	=17
*	*	*	*	*	*	*	*	*	*4\right	*	*	*	*	*	*	*
!	!	!	!	!	!	!	!	!	!LO:TX:a:i:t=Solo	!	!LO:TX:a:t=4	!	!LO:TX:a:i:t=Solo	!	!	!
.	.	.	.	.	16qqaa/	.	.	.	.	.	.	.	.	.	.	.
!	!	!	!	!LO:DY:t=pia	!	!LO:DY:t=pia	!	!	!	!	!	!	!	!	!	!
4A\	7	p	4ee\	p	4gg\	p	1r	.	4e\	be-	00r	.	4gg\	be-	.	.
8A\L	_	.	8ee\L	.	8gg\L	.	.	.	4e\	-ne-	.	.	4gg\	-ne-	.	.
8A\J	.	.	8ee\J	.	8gg\J	.	.	.	.	.	.	.	.	.	.	.
*	*	*	*	*	*	*	*	*	*8\right	*	*	*	*	*	*	*
4A\	_	.	(8ee\L	.	8gg\L	.	.	.	8e\L	-di-	.	.	8gg\L	-di-	.	.
.	.	.	8dd\	.	8ff#\	.	.	.	8d\J	.	.	.	8ff#\J	.	.	.
4r	.	.	8cc#\	.	8ee\	.	.	.	8c#\L	-xit	.	.	8ee\L	-xit	.	.
.	x	.	8b\J)	.	8dd\J	.	.	.	8B\J	.	.	.	8dd\J	.	.	.
!	!	!	!LO:LB:g=original	!	!	!	!	!	!LO:LB:g=original	!	!	!	!	!	!	!
=18	=18	=18	=18	=18	=18	=18	=18	=18	=18	=18	=18	=18	=18	=18	=18	=18
4G\	4 2	.	8b/L	.	(8dd\L	.	4G\	be-	8B/	fi-	.	.	8dd\	fi-	.	.
.	_ _	.	8a/J	.	8cc#\J)	.	.	.	8A/	-li-	.	.	8cc#\	-li-	.	.
8G\L	.	.	2e/ 2a	.	4.cc#\	.	4G\	-ne-	4A/	-is	.	.	4cc#\	-is	.	.
8G\J	.	.	.	.	.	.	.	.	.	.	.	.	.	.	.	.
8G\L	6	.	.	.	.	.	8G\L	-di-	2r	.	.	.	2r	.	.	.
8F#\	6	.	.	.	(8dd\L	.	8F#\J	.	.	.	.	.	.	.	.	.
8E\	.	.	4f#/ 4a	.	8ee\	.	8E\L	-xit	.	.	.	.	.	.	.	.
8D\J	.	.	.	.	8ff#\J)	.	8D\J	.	.	.	.	.	.	.	.	.
!LO:LB:g=original	!	!	!	!	!LO:PB:g=original	!	!	!	!	!	!	!	!LO:LB:g=original	!	!	!
=19	=19	=19	=19	=19	=19	=19	=19	=19	=19	=19	=19	=19	=19	=19	=19	=19
8C#/L	6 5	.	4a\ 4ee	.	4gg\	.	8C#/	fi-	4e\	fi-	.	.	4gg\	fi-	0r	0r
8AA/	_ _	.	.	.	.	.	8C#/	-li-	.	.	.	.	.	.	.	.
8C#/	.	.	(16ee\LL	.	(16gg\LL	.	4C#/	-is	8e\	-li-	.	.	8gg\	-li-	.	.
.	.	.	16dd\	.	16ff#\	.	.	.	.	.	.	.	.	.	.	.
8AA/J	.	.	16ee\	.	16gg\	.	.	.	8f#\	-is	.	.	8aa\	-is	.	.
.	.	.	16ff#\JJ)	.	16aa\JJ)	.	.	.	.	.	.	.	.	.	.	.
8C#\L	.	.	8ee\	.	8gg\L	.	8C#/L	tu-	8e\	tu-	.	.	8gg\L	tu-	.	.
8D\	.	.	4a/	.	8ff#\	.	8D/J	.	4A/	.	.	.	8ff#\J	.	.	.
8E\	6	.	.	.	8ee\	.	8E\L	-is	.	.	.	.	8ee\L	-is	.	.
8F#\J	6	.	8a/	.	8dd\J	.	8F#\J	.	8A/	-is	.	.	8dd\J	.	.	.
=20	=20	=20	=20	=20	=20	=20	=20	=20	=20	=20	=20	=20	=20	=20	=20	=20
4G\	4 2	.	4e/ 4a	.	(8dd\L	.	4G\	in	4A/	in	.	.	(8dd\L	in	.	.
.	.	.	.	.	8cc#\J)	.	.	.	.	.	.	.	8cc#\J)	.	.	.
16G\LL	_ _	.	2e/ 2a	.	4.cc#\	.	4G\	te	4A/	te	.	.	4cc#\	te	.	.
16F#\	.	.	.	.	.	.	.	.	.	.	.	.	.	.	.	.
16G\	.	.	.	.	.	.	.	.	.	.	.	.	.	.	.	.
16A\JJ	.	.	.	.	.	.	.	.	.	.	.	.	.	.	.	.
8G\L	.	.	.	.	.	.	2r	.	2r	.	.	.	2r	.	.	.
8F#\	6	.	.	.	(8dd\L	.	.	.	.	.	.	.	.	.	.	.
8E\	6	.	4f#/ 4a	.	8ee\	.	.	.	.	.	.	.	.	.	.	.
8D\J	.	.	.	.	8ff#\J)	.	.	.	.	.	.	.	.	.	.	.
!	!	!	!LO:TX:t=nieczytelny napis	!	!	!	!	!	!	!	!	!	!	!	!	!
!	!	!	!LO:PB:g=original	!	!	!	!LO:LB:g=original	!	!LO:LB:g=original	!	!	!	!	!	!LO:LB:g=original	!
=21	=21	=21	=21	=21	=21	=21	=21	=21	=21	=21	=21	=21	=21	=21	=21	=21
!LO:TX:b:t=Tutti	!	!	!	!	!LO:TX:a:i:t=Tutti	!	!	!	!	!	!	!	!	!	!	!
8C#/L	.	.	4.ee\	.	4.gg\	.	8A\	qui	4e\	qui	4g\	qui	4cc#\	qui	4r	4r
8AA/	.	.	.	.	.	.	8A\	e-	.	.	.	.	.	.	.	.
8C#/	.	.	.	.	.	.	8A\	-mit-	4e\	dat	8g\	po-	4cc#\	dat	8a/L	8ee\L
*	*	*	*	*	*	*	*	*	*	*	*16\right	*	*	*	*	*
8AA/J	.	.	16ff#\LL	.	16aa\LL	.	16A\	-tet	.	.	16a\	-su-	.	.	8a/J	8ee\J
.	.	.	16gg\JJ	.	16bb\JJ	.	16A\	e-	.	.	16b\	-it	.	.	.	.
*tremolo	*	*	*	*	*	*	*	*	*	*	*	*	*	*	*	*
8C#/L	.	.	(8gg\L	.	(8bb\L	.	4c#\	-lo-	8e\	ni-	8b\	fi-	8cc#\	ni-	4a/	4ee\
8C#/	.	.	8ff#\)	.	8aa\)	.	.	.	8e\	-vem	8a\	-nes	8cc#\	-vem	.	.
8C#/	.	.	(8ff#\	.	(8aa\	.	8c#\	-qui-	8e\	si-	8a\	tu-	8cc#\	si-	4r	4r
8C#/J	.	.	8ee\J)	.	8gg\J)	.	8c#\	-um	8e\	-cut	8g\	-os	8cc#\	-cut	.	.
*Xtremolo	*	*	*	*	*	*	*	*	*	*	*	*	*	*	*	*
=22	=22	=22	=22	=22	=22	=22	=22	=22	=22	=22	=22	=22	=22	=22	=22	=22
8D/L	.	.	4.dd\	.	4.ff#\	.	4d\	su-	4A/	la-	4.f#\	pa-	4dd\	la-	4r	4r
8AA/	.	.	.	.	.	.	.	.	.	.	.	.	.	.	.	.
8D/	.	.	.	.	.	.	4d\	-um	4A/	-nam	.	.	8dd\L	-nem	8dd\L	8ff#\L
8AA/J	.	.	16ee\LL	.	(16gg\LL	.	.	.	.	.	16g\LL	-cem	16ee\L	.	8dd\J	8ff#\J
.	.	.	16ff#\JJ	.	16aa\JJ)	.	.	.	.	.	16a\JJ	.	16ff#\JJ	.	.	.
*tremolo	*	*	*	*	*	*	*	*	*	*	*	*	*	*	*	*
!	!	!	!	!	!LO:LB:g=original	!	!	!	!	!	!LO:LB:g=original	!	!LO:LB:g=original	!	!	!
8D\L	.	.	(8ff#\L	.	8aa\L	.	8D/	ter-	4A/	ne-	8a\	et	8ff#\	ne-	4dd\	4ff#\
8D\	.	.	8ee\)	.	(8gg\	.	8D/	-rae	.	.	8g\	a-	8ee\	-bu-	.	.
8D\	.	.	(8ee\	.	(8gg\)	.	8r	.	8A/	-bu-	8g\	-di-	4dd\	-lam	4r	4r
8D\J	.	.	8dd\J)	.	8ff#\J)	.	8D/	ve-	8A/	-lam	8f#\	-pe	.	.	.	.
=23	=23	=23	=23	=23	=23	=23	=23	=23	=23	=23	=23	=23	=23	=23	=23	=23
*	*	*	*tremolo	*	*	*	*	*	*	*	*	*	*	*	*	*
8G\L	6	.	16dd\LL	.	(8ff#\L	.	4G\	-lo-	4B\	si-	8f#\L	fru-	4b\	si-	4a/	4ee\
.	.	.	16dd\	.	.	.	.	.	.	.	.	.	.	.	.	.
8G\	.	.	16dd\	.	8ee\)	.	.	.	.	.	8e\J	.	.	.	.	.
.	.	.	16dd\	.	.	.	.	.	.	.	.	.	.	.	.	.
8G\	_	.	16dd\	.	(8ee\	.	8G\	-ci-	4B\	-cut	8e\	-men-	4b\	-cut	4r	4r
.	.	.	16dd\	.	.	.	.	.	.	.	.	.	.	.	.	.
8G\J	.	.	16dd\	.	8ff#\J)	.	8G\	-ter	.	.	8f#\	-ti	.	.	.	.
.	.	.	16dd\JJ	.	.	.	.	.	.	.	.	.	.	.	.	.
*Xtremolo	*	*	*	*	*	*	*	*	*	*	*	*	*	*	*	*
!	!	!	!	!	!	!	!	!	!LO:LB:g=original	!	!	!	!	!	!	!
8G\LI	.	.	16dd\LL	.	16gg\LL	.	8G\	cur-	8B\	ci-	(8g\L	fa-	8b\	ci-	2r	2r
.	.	.	16dd\	.	16ff#\	.	.	.	.	.	.	.	.	.	.	.
8G\	.	.	16dd\	.	16gg\	.	8G\	-rit	8B\	-ne-	8a\J	.	8b\	-ne-	.	.
.	.	.	16dd\JJ	.	16aa\JJ	.	.	.	.	.	.	.	.	.	.	.
8G#X\	6 5	.	16b\LL	.	8bb\L	.	8G#X\	ser-	4B\	-rem	8b\)	.	4b\	-rem	.	.
.	.	.	16b\	.	.	.	.	.	.	.	.	.	.	.	.	.
8G#\J	.	.	16b\	.	8dd\J	.	8G#\	-mo	.	.	16d\	-ci-	.	.	.	.
.	.	.	16b\JJ	.	.	.	.	.	.	.	16d\	-at	.	.	.	.
!LO:LB:g=original	!	!	!	!	!	!	!LO:LB:g=original	!	!	!	!	!	!	!	!	!
=24	=24	=24	=24	=24	=24	=24	=24	=24	=24	=24	=24	=24	=24	=24	=24	=24
*	*	*	*	*	*	*	*	*	*	*	*2\right	*	*	*	*	*
!	!	!	!	!	!	!	!	!	!	!	!	!	!	!	!LO:TX:a:t=9	!LO:TX:a:t=9
8A\L	4 2	.	16e/LL	.	(2dd\	.	8A\L	e-	2B\	spar-	2a\	te	2dd\	spar-	00r	00r
.	.	.	16e/	.	.	.	.	.	.	.	.	.	.	.	.	.
8G#X\	_ _	.	16e/	.	.	.	8G#X\	.	.	.	.	.	.	.	.	.
.	.	.	16e/	.	.	.	.	.	.	.	.	.	.	.	.	.
8A\	.	.	16e/	.	.	.	8A\	.	.	.	.	.	.	.	.	.
.	.	.	16e/	.	.	.	.	.	.	.	.	.	.	.	.	.
8G#\J	.	.	16e/	.	.	.	8G#\J	.	.	.	.	.	.	.	.	.
.	x	.	16e/JJ	.	.	.	.	.	.	.	.	.	.	.	.	.
8A\L	.	.	16e/LL	.	4cc#\)	.	2A\	-jus	4A\	-git	4a\	te.	4cc#\	-git	.	.
.	.	.	16e/	.	.	.	.	.	.	.	.	.	.	.	.	.
8E\J	.	.	16e/	.	.	.	.	.	.	.	.	.	.	.	.	.
.	.	.	16e/	.	.	.	.	.	.	.	.	.	.	.	.	.
8C#/L	.	.	16e/	.	4r	.	.	.	4r	.	4r	.	4r	.	.	.
.	.	.	16e/	.	.	.	.	.	.	.	.	.	.	.	.	.
8AA/J	.	.	16e/	.	.	.	.	.	.	.	.	.	.	.	.	.
.	.	.	16e/JJ	.	.	.	.	.	.	.	.	.	.	.	.	.
*	*	*	*Xtremolo	*	*	*	*	*	*	*	*	*	*	*	*	*
=25	=25	=25	=25	=25	=25	=25	=25	=25	=25	=25	=25	=25	=25	=25	=25	=25
*tremolo	*	*	*	*	*	*	*	*	*	*	*	*	*	*	*	*
!	!	!	!	!	!	!	!LO:TX:a:i:rj:t=Solo	!	!LO:TX:a:i:t=Solo	!	!LO:TX:a:t=8.	!	!LO:TX:a:t=8	!	!	!
8A\L	.	.	4.cc#\	???	4.ee\	p	4c#\	mit-	4e\	mit-	00r	.	00r	.	.	.
8A\	.	.	.	.	.	.	.	.	.	.	.	.	.	.	.	.
8A\	.	.	.	.	.	.	8c#\	-tit	8e\	-tit	.	.	.	.	.	.
8A\J	.	.	8b\	.	8dd\	.	8B\	cry-	8d\	cry-	.	.	.	.	.	.
8A\L	.	.	(8a\L	.	8cc#\L	.	4A\	-stal-	4c#\	-stal-	.	.	.	.	.	.
8A\	.	.	8ff#\	.	8aa\	.	.	.	.	.	.	.	.	.	.	.
8A\	.	.	8ee\	.	8gg#X\	.	8A\L	-lum	8c#\L	-lum	.	.	.	.	.	.
8A\J	.	.	8dd\J)	.	8ff#\J	.	8d\J	.	8f#\J	.	.	.	.	.	.	.
*Xtremolo	*	*	*	*	*	*	*	*	*	*	*	*	*	*	*	*
=26	=26	=26	=26	=26	=26	=26	=26	=26	=26	=26	=26	=26	=26	=26	=26	=26
8A\L	.	p	4.cc#\	.	4.ee\	.	(4.c#\	su-	4.e\	su-	.	.	.	.	.	.
8E\	.	.	.	.	.	.	.	.	.	.	.	.	.	.	.	.
8A\	.	.	.	.	.	.	.	.	.	.	.	.	.	.	.	.
8E\J	.	.	8b\	.	8dd\	.	8B\	.	8d\	.	.	.	.	.	.	.
8A\L	.	.	(8a\L	.	4cc#\	.	4A\)	-am	4c#\	-am	.	.	.	.	.	.
8c#\	3	.	8ee\	.	.	.	.	.	.	.	.	.	.	.	.	.
8B\	3	.	8dd\	.	4r	.	4r	.	4r	.	.	.	.	.	.	.
8A\J	3	.	8cc#\J)	.	.	.	.	.	.	.	.	.	.	.	.	.
!	!	!	!LO:LB:g=original	!	!LO:LB:g=original	!	!	!	!LO:LB:g=original	!	!	!	!	!	!	!
=27	=27	=27	=27	=27	=27	=27	=27	=27	=27	=27	=27	=27	=27	=27	=27	=27
8G#X\L	.	.	4.b/	.	4.dd\	.	4.B\	si-	(4.d\	si-	.	.	.	.	.	.
8E\	.	.	.	.	.	.	.	.	.	.	.	.	.	.	.	.
8E\	.	.	.	.	.	.	.	.	.	.	.	.	.	.	.	.
8E\J	.	.	8a/	.	8cc#\	.	8A\	-cut	8c#\)	.	.	.	.	.	.	.
*tremolo	*	*	*	*	*	*	*	*	*	*	*	*	*	*	*	*
8E\L	.	.	8g#X/L	.	8b\L	.	(8G#X\L	buc-	8B\L	-cut	.	.	.	.	.	.
8E\	.	.	8dd/	.	8ff#\	.	8d\	.	8f#\J	.	.	.	.	.	.	.
8E\	.	.	8cc#/	.	8ee\	.	8c#\	.	8e\L	buc-	.	.	.	.	.	.
8E\J	.	.	8b/J	.	8dd\J	.	8B\J)	.	8d\J	.	.	.	.	.	.	.
*Xtremolo	*	*	*	*	*	*	*	*	*	*	*	*	*	*	*	*
!	!	!	!	!	!	!	!LO:LB:g=original	!	!	!	!	!	!	!	!	!
=28	=28	=28	=28	=28	=28	=28	=28	=28	=28	=28	=28	=28	=28	=28	=28	=28
8G#X\L	.	.	4.b/	.	4.dd\	.	(4.B\	-cel-	4.d\	-cel-	.	.	.	.	00r	00r
8E\	.	.	.	.	.	.	.	.	.	.	.	.	.	.	.	.
8G#\	.	.	.	.	.	.	.	.	.	.	.	.	.	.	.	.
8E\J	.	.	8a/	.	8cc#\	.	8A\)	.	8c#\	.	.	.	.	.	.	.
8E\L	.	.	8g#X/L	.	4b\	.	4E\	-las	4B\	-las	.	.	.	.	.	.
8B\	3	.	8dd/	.	.	.	.	.	.	.	.	.	.	.	.	.
8A\	3	.	8cc#/	.	4r	.	4r	.	4r	.	.	.	.	.	.	.
8G#\J	3	.	8b/J	.	.	.	.	.	.	.	.	.	.	.	.	.
!LO:LB:g=original	!	!	!	!	!	!	!	!	!	!	!	!	!	!	!	!
=29	=29	=29	=29	=29	=29	=29	=29	=29	=29	=29	=29	=29	=29	=29	=29	=29
*tremolo	*	*	*	*	*	*	*	*	*	*	*	*	*	*	*	*
8A\L	.	.	8cc#\L|	.	8ee'\L	.	8c#\	an-	8e\	an-	00r	.	00r	.	.	.
8A\	.	.	8cc#\J|	.	8ee'\J	.	8c#\	-te	8e\	-te	.	.	.	.	.	.
8A\	.	.	(16cc#\LL	.	(16ee\LL	.	16c#\LL	fa-	(16e\LL	fa-	.	.	.	.	.	.
.	.	.	16dd\	.	16ff#\	.	16d\JJ	.	16f#\JJ)	.	.	.	.	.	.	.
8A\J	.	.	16cc#\	.	16ee\	.	16c#\LL	-ci-	(16e\LL	-ci-	.	.	.	.	.	.
.	.	.	16b\JJ)	.	16dd\JJ)	.	16B\JJ	.	16d\JJ)	.	.	.	.	.	.	.
!	!	!	!	!	!	!	!	!	!LO:LB:g=original	!	!	!	!	!	!	!
8A\L	.	.	(8a\L	.	(8cc#\L	.	4A\	-em	(8c#\L	-em	.	.	.	.	.	.
8A\	.	.	8ff#\	.	8aa\	.	.	.	8a\J)	.	.	.	.	.	.	.
8A\	.	.	8ee\	.	8gg#X\	.	8e\L	fri-	(8g#X\L	fri-	.	.	.	.	.	.
8A\J	.	.	8dd\J)	.	8ff#\J)	.	8d\J	.	8f#\J)	.	.	.	.	.	.	.
*Xtremolo	*	*	*	*	*	*	*	*	*	*	*	*	*	*	*	*
=30	=30	=30	=30	=30	=30	=30	=30	=30	=30	=30	=30	=30	=30	=30	=30	=30
!LO:TX:a:t=P:problem:mixed beam	!	!	!	!	!	!	!	!	!	!	!	!	!	!	!	!
8AA/L	.	.	4cc#\	.	4ee\	.	4c#\	-go-	4e\	-go-	.	.	.	.	.	.
8A\J	.	.	.	.	.	.	.	.	.	.	.	.	.	.	.	.
!LO:TX:a:t=P:problem:mixed beam	!	!	!	!	!	!	!	!	!	!	!	!	!	!	!	!
8AA/L	.	.	(16cc#\LL	.	(16ee\LL	.	16c#\LL	.	(16e\LL	.	.	.	.	.	.	.
.	.	.	16dd\	.	16ff#\	.	16d\	.	16f#\	.	.	.	.	.	.	.
8A\J	.	.	16cc#\	.	16ee\	.	16c#\	.	16e\	.	.	.	.	.	.	.
.	.	.	16b\JJ)	.	16dd\JJ	.	16B\JJ	.	16d\JJ)	.	.	.	.	.	.	.
!LO:TX:a:t=P:problem:mixed beam	!	!	!	!	!	!	!	!	!	!	!	!	!	!	!	!
8AA/L	.	.	8a\L|	.	4cc#\)	.	4A\	-ris	4c#\	-ris	.	.	.	.	.	.
8c#\	.	.	(8ee\	.	.	.	.	.	.	.	.	.	.	.	.	.
8B\	.	.	8dd\	.	4r	.	4r	.	4r	.	.	.	.	.	.	.
8A\J	.	.	8cc#\J)	.	.	.	.	.	.	.	.	.	.	.	.	.
!	!	!	!	!	!LO:LB:g=original	!	!	!	!	!	!	!	!	!	!	!
=31	=31	=31	=31	=31	=31	=31	=31	=31	=31	=31	=31	=31	=31	=31	=31	=31
8G#X\L	.	.	8b\L	.	8dd'\L	.	4B\	e-	4d\	e-	.	.	.	.	.	.
8E\	.	.	8b\J	.	8dd'\J	.	.	.	.	.	.	.	.	.	.	.
8E\	.	.	(16b\LL	.	(16dd\LL	.	8B\L	-jus	(16d\LL	-jus	.	.	.	.	.	.
.	.	.	16cc#\	.	16ee\	.	.	.	16e\	.	.	.	.	.	.	.
8E\J	.	.	16b\	.	16dd\	.	8A\J	.	16d\	.	.	.	.	.	.	.
.	.	.	16a\JJ)	.	16cc#\JJ)	.	.	.	16c#\JJ)	.	.	.	.	.	.	.
*tremolo	*	*	*	*	*	*	*	*	*	*	*	*	*	*	*	*
!	!	!	!	!	!	!	!LO:LB:g=original	!	!	!	!	!	!	!	!	!
8E\L	.	.	8g#X'\L	.	8b\L	.	8E\L	quis	8B\L	quis	.	.	.	.	.	.
8E\	.	.	(8dd\	.	8ff#\	.	8d\J	.	8f#\J	.	.	.	.	.	.	.
8E\	.	.	8cc#\	.	8ee\	.	8c#\	sus-	8e\	sus-	.	.	.	.	.	.
8E\J	.	.	8b\J)	.	8dd\J	.	8B\	-ti-	8d\	-ti-	.	.	.	.	.	.
*Xtremolo	*	*	*	*	*	*	*	*	*	*	*	*	*	*	*	*
!	!	!	!LO:LB:g=original	!	!	!	!	!	!LO:LB:g=original	!	!	!	!	!	!	!
=32	=32	=32	=32	=32	=32	=32	=32	=32	=32	=32	=32	=32	=32	=32	=32	=32
8G#X\L	.	.	4b\	.	4dd\	.	4B\	-ne-	4d\	-ne-	.	.	.	.	1r	1r
8E\	.	.	.	.	.	.	.	.	.	.	.	.	.	.	.	.
8G#\	.	.	(16b\LL	.	16dd\LL	.	(8B\L	.	16d\LL	.	.	.	.	.	.	.
.	.	.	16cc#\	.	16ee\	.	.	.	16e\	.	.	.	.	.	.	.
8E\J	.	.	16b\)	.	16dd\	.	8A\J	.	16d\	.	.	.	.	.	.	.
.	.	.	16a\JJ	.	16cc#\JJ	.	.	.	16c#\JJ	.	.	.	.	.	.	.
*tremolo	*	*	*	*	*	*	*	*	*	*	*	*	*	*	*	*
8E\L	.	.	8g#X/L	.	4b\	.	4E\)	-bit	4B\	-bit	.	.	.	.	.	.
8E\	.	.	8dd/	.	.	.	.	.	.	.	.	.	.	.	.	.
8E\	.	.	8cc#/	.	4r	.	8ryy	.	4r	.	.	.	.	.	.	.
8E\J	.	.	8b/J	.	.	.	8D/	.	.	.	.	.	.	.	.	.
!	!	!	!	!	!	!	!	!	!	!	!LO:LB:g=original	!	!	!	!	!
=33	=33	=33	=33	=33	=33	=33	=33	=33	=33	=33	=33	=33	=33	=33	=33	=33
*	*	*	*tremolo	*	*	*	*	*	*	*	*	*	*	*	*	*
!	!	!	!LO:TX:b:rj:t=Tutti	!	!LO:TX:a:i:t=Tutti	!	!LO:TX:a:i:t=Tutti	!	!	!	!	!	!	!	!	!
8A\L	.	.	16e/LL 16cc#	.	8cc#\	.	4A\	E-	4c#\	e-	4c#\	E-	4ee\	e-	4a/	4ee\
.	.	.	16e/ 16cc#	.	.	.	.	.	.	.	.	.	.	.	.	.
8A\	.	.	16e/ 16cc#	.	4ee\	.	.	.	.	.	.	.	.	.	.	.
.	.	.	16e/ 16cc#	.	.	.	.	.	.	.	.	.	.	.	.	.
8A\	.	.	16e/ 16cc#	.	.	.	8A\	-mi-	8c#\	-mi-	8e\	-mi-	8ee\	-mi-	8a/L	8ee\L
.	.	.	16e/ 16cc#	.	.	.	.	.	.	.	.	.	.	.	.	.
8A\J	.	.	16e/ 16cc#	.	8aa\	.	8A\	-tet	8c#\	-tet	8a\	-tet	8ee\	-tet	8a/J	8ee\J
.	.	.	16e/JJ 16cc#	.	.	.	.	.	.	.	.	.	.	.	.	.
!	!	!	!	!	!	!	!	!	!	!	!	!	!LO:LB:g=original	!	!	!
8B\L	6	.	16e/LL 16dd	.	(8aa\L	.	4B\	ver-	4d\	ver-	8a\L	ver-	4ee\	ver-	4a/	4ee\
.	.	.	16e/ 16dd	.	.	.	.	.	.	.	.	.	.	.	.	.
8B\	.	.	16e/ 16dd	.	8gg#X\J	.	.	.	.	.	8g#X\J	.	.	.	.	.
.	.	.	16e/ 16dd	.	.	.	.	.	.	.	.	.	.	.	.	.
8B\	.	.	16e/ 16dd	.	4gg#\)	.	4B\	-bum	4d\	-bum	4g#\	-bum	4ee\	-bum	4r	4r
.	.	.	16e/ 16dd	.	.	.	.	.	.	.	.	.	.	.	.	.
8B\J	.	.	16e/ 16dd	.	.	.	.	.	.	.	.	.	.	.	.	.
.	.	.	16e/JJ 16dd	.	.	.	.	.	.	.	.	.	.	.	.	.
!	!	!	!	!	!LO:LB:g=original	!	!	!	!	!	!	!	!	!	!	!
=34	=34	=34	=34	=34	=34	=34	=34	=34	=34	=34	=34	=34	=34	=34	=34	=34
*	*	*	*	*	*	*	*	*	*	*	*	*	*	*ij	*	*
8c#\L	6	.	16e/LL 16cc#	.	8aa\L	.	4c#\	ver-	4A/	ver-	(8a\L	ver-	4ee\	ver-	4a/	4ee\
.	.	.	16e/ 16cc#	.	.	.	.	.	.	.	.	.	.	.	.	.
8c#\	.	.	16e/ 16cc#	.	8ee\	.	.	.	.	.	8e\J)	.	.	.	.	.
.	.	.	16e/ 16cc#	.	.	.	.	.	.	.	.	.	.	.	.	.
8c#\	.	.	16e/ 16cc#	.	8ccc#\	.	4c#\	-bum	4A/	-bum	(8cc#\L	-bum	4ee\	-bum	4r	4r
.	.	.	16e/ 16cc#	.	.	.	.	.	.	.	.	.	.	.	.	.
8c#\J	.	.	16e/ 16cc#	.	8aa\J	.	.	.	.	.	8a\J)	.	.	.	.	.
.	.	.	16e/JJ 16cc#	.	.	.	.	.	.	.	.	.	.	.	.	.
*	*	*	*	*	*	*	*	*	*	*	*	*	*	*Xij	*	*
8d\L	#4 2	.	16e/LL 16b	.	(8aa\L	.	4d\	Su-	4B\	Su-	8a\L	Su-	4ee\	su-	2r	2r
.	.	.	16e/ 16b	.	.	.	.	.	.	.	.	.	.	.	.	.
8d\	.	.	16e/ 16b	.	8gg#X\J	.	.	.	.	.	8g#X\J	.	.	.	.	.
.	.	.	16e/ 16b	.	.	.	.	.	.	.	.	.	.	.	.	.
8d\	.	.	16e/ 16b	.	4gg#\)	.	4d\	-um	4B\	-um	4g#\	-um	4ee\	-um	.	.
.	.	.	16e/ 16b	.	.	.	.	.	.	.	.	.	.	.	.	.
8d\J	.	.	16e/ 16b	.	.	.	.	.	.	.	.	.	.	.	.	.
.	.	.	16e/JJ 16b	.	.	.	.	.	.	.	.	.	.	.	.	.
!LO:LB:g=original	!	!	!	!	!	!	!LO:LB:g=original	!	!LO:LB:g=original	!	!	!	!	!	!	!LO:LB:g=original
=35	=35	=35	=35	=35	=35	=35	=35	=35	=35	=35	=35	=35	=35	=35	=35	=35
8c#\L	6	.	16e/LL 16a	.	12aa\L	.	4c#\	et	4A/	et	4cc#\	et	4ee\	et	4a/	4ee\
.	.	.	16e/ 16a	.	.	.	.	.	.	.	.	.	.	.	.	.
.	.	.	.	.	12ee\	.	.	.	.	.	.	.	.	.	.	.
8c#\	.	.	16e/ 16a	.	.	.	.	.	.	.	.	.	.	.	.	.
.	.	.	.	.	12ccc#\J	.	.	.	.	.	.	.	.	.	.	.
.	.	.	16e/ 16a	.	.	.	.	.	.	.	.	.	.	.	.	.
8c#\	.	.	16e/ 16a	.	12eee\L	.	8c#\	li-	8A/	li-	8ee\	li-	8ee\	li-	4r	4r
.	.	.	16e/ 16a	.	.	.	.	.	.	.	.	.	.	.	.	.
.	.	.	.	.	12ccc#\	.	.	.	.	.	.	.	.	.	.	.
8c#\J	.	.	16e/ 16a	.	.	.	8c#\	-que-	8A/	-que-	8a\	-que-	8ee\	-que-	.	.
.	.	.	.	.	12aa\J	.	.	.	.	.	.	.	.	.	.	.
.	.	.	16e/JJ 16a	.	.	.	.	.	.	.	.	.	.	.	.	.
8d\L	4+ 2	.	16e/LL 16b	.	(8aa\L	.	8d\	-fa-	8B\	-fa-	8a\	-fa-	8ee\	-fa-	2r	2r
.	.	.	16e/ 16b	.	.	.	.	.	.	.	.	.	.	.	.	.
8d\	.	.	16e/ 16b	.	8gg#X\J	.	8d\	-ci-	8B\	-ci-	8g#X\	-ci-	8ee\	-ci-	.	.
.	.	.	16e/ 16b	.	.	.	.	.	.	.	.	.	.	.	.	.
8d\	.	.	16e/ 16b	.	4gg#\)	.	4d\	-et	4B\	-et	4g#\	-et	4ee\	-et	.	.
.	.	.	16e/ 16b	.	.	.	.	.	.	.	.	.	.	.	.	.
8d\J	.	.	16e/ 16b	.	.	.	.	.	.	.	.	.	.	.	.	.
.	.	.	16e/JJ 16b	.	.	.	.	.	.	.	.	.	.	.	.	.
=36	=36	=36	=36	=36	=36	=36	=36	=36	=36	=36	=36	=36	=36	=36	=36	=36
8c#\L	6	.	16a\LL 16ee	.	8aa\L	.	2c#\	e-	4A/	e-	4a\	e-	4ee\	e-	4a/	4ee\
.	.	.	16a\ 16ee	.	.	.	.	.	.	.	.	.	.	.	.	.
8c#\	.	.	16a\ 16ee	.	(8ee\	.	.	.	.	.	.	.	.	.	.	.
.	.	.	16a\ 16ee	.	.	.	.	.	.	.	.	.	.	.	.	.
8c#\	.	.	16a\ 16ee	.	8ccc#\	.	.	.	4A/	-a	8cc#\L	-a	4ee\	-a	4r	4r
.	.	.	16a\ 16ee	.	.	.	.	.	.	.	.	.	.	.	.	.
8c#\J	.	.	16a\ 16ee	.	8aa\J)	.	.	.	.	.	8a\J	.	.	.	.	.
.	.	.	16a\JJ 16ee	.	.	.	.	.	.	.	.	.	.	.	.	.
!	!	!	!	!	!	!	!	!	!	!	!LO:LB:g=original	!	!	!	!	!
8c#\L	6 5	.	16a\LL 16ee	.	8aa\L	.	2A\	-a	4c#\	e-	8a\L	e-	4ee\	e-	2r	2r
.	.	.	16a\ 16ee	.	.	.	.	.	.	.	.	.	.	.	.	.
8c#\	.	.	16a\ 16ee	.	8ggn\J	.	.	.	.	.	8gn\J	.	.	.	.	.
.	.	.	16a\ 16ee	.	.	.	.	.	.	.	.	.	.	.	.	.
8c#\	.	.	16a\ 16ee	.	4gg\	.	.	.	4c#\	-a	4g\	-a	4ee\	-a	.	.
.	.	.	16a\ 16ee	.	.	.	.	.	.	.	.	.	.	.	.	.
8c#\J	.	.	16a\ 16ee	.	.	.	.	.	.	.	.	.	.	.	.	.
.	.	.	16a\JJ 16ee	.	.	.	.	.	.	.	.	.	.	.	.	.
*	*	*	*Xtremolo	*	*	*	*	*	*	*	*	*	*	*	*	*
!	!	!	!	!	!	!	!	!	!	!	!	!	!LO:LB:g=original	!	!	!
=37	=37	=37	=37	=37	=37	=37	=37	=37	=37	=37	=37	=37	=37	=37	=37	=37
!	!	!	!	!	!	!	!	!	!	!	!	!	!	!	!LO:TX:a:t=3	!LO:TX:a:t=3
8A#X\L	n7	.	2ee\	.	2gg\	.	4A#X\	fla-	4e\	fla-	4f#\	fla-	4gg\	fla-	0r	0r
8A#\	.	.	.	.	.	.	.	.	.	.	.	.	.	.	.	.
8A#\	.	.	.	.	.	.	4A#\	-bit	4e\	-bit	4f#\	-bit	4gg\	-bit	.	.
8A#\J	.	.	.	.	.	.	.	.	.	.	.	.	.	.	.	.
*Xtremolo	*	*	*	*	*	*	*	*	*	*	*	*	*	*	*	*
8A#\L	6	.	4dd\	.	4ff#\	.	8A#\	spi-	8d\	spi-	8f#\	spi-	8ff#\	spi-	.	.
8A#\	.	.	.	.	.	.	8A#\	-ri-	8d\	-ri-	8f#\	-ri-	8ff#\	-ri-	.	.
8F#\	7 #	.	4cc#\	.	4ee\	.	4F#\	-tus	4c#\	-tus	4a#X\	-tus	4ee\	-tus	.	.
8F#\J	.	.	.	.	.	.	.	.	.	.	.	.	.	.	.	.
!	!	!	!	!	!LO:LB:g=original	!	!	!	!LO:LB:g=original	!	!	!	!	!	!	!
=38	=38	=38	=38	=38	=38	=38	=38	=38	=38	=38	=38	=38	=38	=38	=38	=38
4B\	.	.	4f#/	.	(16dd\LL	.	4B\	e-	4B\	e-	4f#\	e-	4dd\	e-	.	.
.	.	.	.	.	16ff#\	.	.	.	.	.	.	.	.	.	.	.
.	.	.	.	.	16gg\	.	.	.	.	.	.	.	.	.	.	.
.	.	.	.	.	16aa#X\JJ)	.	.	.	.	.	.	.	.	.	.	.
8r	.	.	8r	.	8bb'\L	.	4B\	-jus	4B\	-jus	4f#\	-jus	4dd\	-jus	.	.
8F#\|	.	.	8ff#\|	.	8ff#'\J	.	.	.	.	.	.	.	.	.	.	.
8E'\L	.	.	8ee'\L	.	8ee'\L	.	2r	.	2r	.	2r	.	2r	.	.	.
8D'\	.	.	8dd'\	.	8dd'\	.	.	.	.	.	.	.	.	.	.	.
8C#'\	.	.	8cc#'\	.	8cc#'\	.	.	.	.	.	.	.	.	.	.	.
8BB'\J	.	.	8b'\J	.	8b'\J	.	.	.	.	.	.	.	.	.	.	.
!	!	!	!LO:LB:g=original	!	!	!	!LO:LB:g=original	!	!	!	!	!	!	!	!	!
=39	=39	=39	=39	=39	=39	=39	=39	=39	=39	=39	=39	=39	=39	=39	=39	=39
*tremolo	*	*	*	*	*	*	*	*	*	*	*	*	*	*	*	*
8G#X\L	7	.	2dd\	.	2ff#\	.	4G#X\	et	4d\	et	4e\	et	4ff#\	et	1r	1r
8G#\	.	.	.	.	.	.	.	.	.	.	.	.	.	.	.	.
8G#\	.	.	.	.	.	.	8G#\	flu-	8d\	flu-	8e\	flu-	8ff#\	flu-	.	.
8G#\J	.	.	.	.	.	.	8G#\	-ent	8d\	-ent	8e\	-ent	8ff#\	-ent	.	.
*Xtremolo	*	*	*	*	*	*	*	*	*	*	*	*	*	*	*	*
8G#\L	6	.	4cc#\	.	4ee\	.	4G#\	a-	4c#\	a-	4e\	a-	4ee\	a-	.	.
8G#\	.	.	.	.	.	.	.	.	.	.	.	.	.	.	.	.
8E\	7 #	.	4b\	.	4dd\	.	4E\	-quae	4B\	-quae	4g#X\	-quae	4dd\	-quae	.	.
8E\J	.	.	.	.	.	.	.	.	.	.	.	.	.	.	.	.
!	!	!	!	!	!	!	!	!	!	!	!	!	!	!	!LO:LB:g=original	!
=40	=40	=40	=40	=40	=40	=40	=40	=40	=40	=40	=40	=40	=40	=40	=40	=40
4A\	.	.	4e/ 4a	.	16cc#\LL	.	4A\	a-	4A/	a-	4e\	a-	4cc#\	a-	4a/	4ee\
.	.	.	.	.	16ee\	.	.	.	.	.	.	.	.	.	.	.
.	.	.	.	.	16ff#\	.	.	.	.	.	.	.	.	.	.	.
.	.	.	.	.	16gg#X\JJ	.	.	.	.	.	.	.	.	.	.	.
8r	.	.	8r	.	8aa\L	.	4A\	-quae.	4A/	-quae	4e\	-quae.	4cc#\	-quae	4r	4r
8e\	.	.	8ee\|	.	8ee\J	.	.	.	.	.	.	.	.	.	.	.
8d'\L	.	.	8dd\L|	.	8dd\L	.	2r	.	2r	.	2r	.	2r	.	2r	2r
8c#'\	.	.	8cc#\|	.	8cc#\	.	.	.	.	.	.	.	.	.	.	.
8B'\	.	.	8b\|	.	8b\	.	.	.	.	.	.	.	.	.	.	.
8A'\J	.	.	8a\J|	.	8a\J	.	.	.	.	.	.	.	.	.	.	.
!LO:LB:g=original	!	!	!	!	!	!	!	!	!	!	!LO:LB:g=original	!	!LO:LB:g=original	!	!	!
=41	=41	=41	=41	=41	=41	=41	=41	=41	=41	=41	=41	=41	=41	=41	=41	=41
8c#\L	.	.	(8e/L	.	8a\	.	2c#\	Non	2g\	non	4a\	qui	4ee\	qui	1r	1r
8A\	.	.	8c#/)	.	4gg\	.	.	.	.	.	.	.	.	.	.	.
8c#\	.	.	(8e/	.	.	.	.	.	.	.	4a\	an-	4ee\	an-	.	.
8A\J	.	.	8c#/J)	.	8gg\	.	.	.	.	.	.	.	.	.	.	.
!	!	!	!	!	!LO:LB:g=original	!	!	!	!	!	!	!	!	!	!	!
8c#\L	.	.	(8e/L	.	4.gg\	.	4c#\	fe-	4.g\	fe-	8a\	-nun-	8ee\	-nun-	.	.
8A\	.	.	8c#/	.	.	.	.	.	.	.	8a\	-ti-	8ee\	-ti-	.	.
8c#\	.	.	8e/	.	.	.	4c#\	-cit	.	.	4a\	-at	4ee\	-at	.	.
8A\J	.	.	8g/J)	.	16ff#\LL	.	.	.	16f#\LL	-cit	.	.	.	.	.	.
.	.	.	.	.	16ee\JJ	.	.	.	16e\JJ	.	.	.	.	.	.	.
!	!	!	!	!	!	!	!	!	!LO:PB:g=original	!	!	!	!	!	!	!
=42	=42	=42	=42	=42	=42	=42	=42	=42	=42	=42	=42	=42	=42	=42	=42	=42
8r	.	.	8e/L	.	(8dd\L	.	4A\	ta-	8d\L	ta-	4a\	Ver-	4ee\	Ver-	8r	8r
8AA/L	.	.	8g/	.	8cc#\)	.	.	.	8c#\J	.	.	.	.	.	8f#'/L	8dd'\L
8C#/	.	.	8e/	.	8cc#'\	.	4A\	-li-	4c#\	-li-	4a\	-bum	4ee\	-bum	8f#'/	8dd'\
8E/J	.	.	8g/J	.	8cc#'\J	.	.	.	.	.	.	.	.	.	8f#'/J	8dd'\J
*	*	*	*rep	*	*	*	*	*	*	*	*	*	*	*	*2\right	*2\right
8A\L	.	.	8e/L	.	2cc#\	.	2A\	-ter	2c#\	-ter	4a\	su-	4ee\	su-	2f#/	2dd\
8E\J	.	.	8g/	.	.	.	.	.	.	.	.	.	.	.	.	.
8C#/L	.	.	8e/	.	.	.	.	.	.	.	4a\	-um	4ee\	-um	.	.
8AA/J	.	.	8g/J	.	.	.	.	.	.	.	.	.	.	.	.	.
*	*	*	*Xrep	*	*	*	*	*	*	*	*	*	*	*	*	*
=43	=43	=43	=43	=43	=43	=43	=43	=43	=43	=43	=43	=43	=43	=43	=43	=43
8D/L	.	.	(8f#/L	.	8a/	.	4D\	om-	4A/	om-	4f#\	Ver-	4dd\	Ver-	1r	1r
8AA/	.	.	8d/	.	4aa\	.	.	.	.	.	.	.	.	.	.	.
8D/	.	.	8f#/	.	.	.	4D\	-ni	4A/	-ni	4f#\	-bum	4dd\	-bum	.	.
8AA/J	.	.	8d/J)	.	8aa\	.	.	.	.	.	.	.	.	.	.	.
*tremolo	*	*	*	*	*	*	*	*	*	*	*	*	*	*	*	*
8D\L	.	.	(8f#/L	.	4.aa\	.	4F#\	na-	4.A/	na-	4a\	su-	4dd\	su-	.	.
8D\	.	.	8d/	.	.	.	.	.	.	.	.	.	.	.	.	.
8D\	.	.	8f#/	.	.	.	4A\	-ti-	.	.	4f#\	-um	4dd\	-um	.	.
8D\J	.	.	8a/J)	.	16gg\LL	.	.	.	16g\LL	-ti-	.	.	.	.	.	.
.	.	.	.	.	16ff#\JJ	.	.	.	16f#\JJ	.	.	.	.	.	.	.
!	!	!	!LO:LB:g=original	!	!	!	!LO:LB:g=original	!	!	!	!	!	!	!	!	!
=44	=44	=44	=44	=44	=44	=44	=44	=44	=44	=44	=44	=44	=44	=44	=44	=44
8r	.	.	(8g/L	.	(8ee\L	.	2d\	-o-	8e\L	-o-	2a\	Ja-	4ee\	Ja-	8r	8r
8D\L	.	.	8a/)	.	8dd\)	.	.	.	8d\J	.	.	.	.	.	8a/L	8ee\L
8F#\	.	.	(8f#/	.	8dd'\	.	.	.	4d\	.	.	.	4ff#\	.	8a/	8ee\
8A\J	.	.	8a/J)	.	8dd'\J	.	.	.	.	.	.	.	.	.	8a/J	8ee\J
!	!	!	!	!	!	!	!	!	!	!	!LO:SIC:o=:v:wymazane 4 takty	!	!	!	!	!
*	*	*	*rep	*	*	*	*	*	*	*	*	*	*	*	*	*
8d\L	.	.	(8g/L	.	2dd\	.	2D/	-ni	2d\	-ni	2a\	-cob	2ff#\	-cob	2a/	2ee\
8A\	.	.	8a/)	.	.	.	.	.	.	.	.	.	.	.	.	.
8F#\	.	.	(8f#/	.	.	.	.	.	.	.	.	.	.	.	.	.
8D\J	.	.	8a/J)	.	.	.	.	.	.	.	.	.	.	.	.	.
*	*	*	*Xrep	*	*	*	*	*	*	*	*	*	*	*	*	*
!	!	!	!	!	!LO:LB:g=original	!	!	!	!	!	!	!	!LO:LB:g=original	!	!	!
=45	=45	=45	=45	=45	=45	=45	=45	=45	=45	=45	=45	=45	=45	=45	=45	=45
8G\L	.	.	8b/	.	8ee\	.	8G\L	et	4d\	et	2b\	jus-	2dd\	jus-	1r	1r
8F#\	.	.	4gg\	.	4bb\	.	8F#\J	.	.	.	.	.	.	.	.	.
8E\	.	.	.	.	.	.	16E\LL	ju-	4g\	ju-	.	.	.	.	.	.
.	.	.	.	.	.	.	16D\JJ	.	.	.	.	.	.	.	.	.
8D\J	.	.	8gg\	.	8bb\	.	8ryy	.	.	.	.	.	.	.	.	.
8C#/L	.	.	4.gg\	.	4.bb\	.	8C#/	-di-	4.g\	-di-	8b\	-ti-	8dd\	-ti-	.	.
8C#/	.	.	.	.	.	.	8C#/	-ti-	.	.	8b\	-ti-	8dd\	-ti-	.	.
8C#/	.	.	.	.	.	.	4C#/	-a	.	.	4b\	-as	4dd\	-as	.	.
8C#/J	.	.	(16ff#\LL	.	(16aa\LL	.	.	.	16f#\	-ci-	.	.	.	.	.	.
.	.	.	16ee\JJ)	.	16gg\JJ)	.	.	.	16e\	-a	.	.	.	.	.	.
*Xtremolo	*	*	*	*	*	*	*	*	*	*	*	*	*	*	*	*
!LO:LB:g=original	!	!	!	!	!	!	!	!	!LO:LB:g=original	!	!LO:LB:g=original	!	!	!	!	!
=46	=46	=46	=46	=46	=46	=46	=46	=46	=46	=46	=46	=46	=46	=46	=46	=46
8D\L	.	.	16ff#\LL	.	8ff#\	.	4D\	su-	4A/	su-	4a\	et	4ff#\	et	4dd\	4ff#\
.	.	.	16ff#\	.	.	.	.	.	.	.	.	.	.	.	.	.
8D\	.	.	16ff#\	.	4ddd\	.	.	.	.	.	.	.	.	.	.	.
.	.	.	16ff#\JJ	.	.	.	.	.	.	.	.	.	.	.	.	.
*	*	*	*tremolo	*	*	*	*	*	*	*	*	*	*	*	*	*
8E\	7	.	16gg\LL	.	.	.	4E\	-a	4G/	-a	4g\	ju-	4ee\	ju-	8dd\L	8ff#\L
.	.	.	16gg\	.	.	.	.	.	.	.	.	.	.	.	.	.
8E\J	.	.	16gg\	.	8ddd\	.	.	.	.	.	.	.	.	.	8dd\J	8ff#\J
.	.	.	16gg\JJ	.	.	.	.	.	.	.	.	.	.	.	.	.
8F#\L	6	.	16aa\LL	.	4.ddd\	.	4F#\	non	4A/	non	8f#\	-di-	8dd\	-di-	4dd\	4ff#\
.	.	.	16aa\	.	.	.	.	.	.	.	.	.	.	.	.	.
8F#\	.	.	16aa\	.	.	.	.	.	.	.	8f#\	-ti-	8dd\	-ti-	.	.
.	.	.	16aa\JJ	.	.	.	.	.	.	.	.	.	.	.	.	.
8D\	.	.	16ff#\LL	.	.	.	4D\	ma-	4F#/	ma-	4a\	-a	4ff#\	-a	4r	4r
.	.	.	16ff#\	.	.	.	.	.	.	.	.	.	.	.	.	.
8D\J	.	.	16ff#\	.	16ccc#\LL	.	.	.	.	.	.	.	.	.	.	.
.	.	.	16ff#\JJ	.	16bb\JJ	.	.	.	.	.	.	.	.	.	.	.
*	*	*	*Xtremolo	*	*	*	*	*	*	*	*	*	*	*	*	*
=47	=47	=47	=47	=47	=47	=47	=47	=47	=47	=47	=47	=47	=47	=47	=47	=47
4d\	.	.	(8gg\L	.	(8bb\L	.	4D\	-ni-	4f#\	-ni-	8b\L	su-	4dd\	su-	2r	2r
.	.	.	8ff#\)J	.	8aa\)J	.	.	.	.	.	8a\J	.	.	.	.	.
8r	.	.	8dd'\L	.	8ff#'\L	.	4D\	-fes-	8d\L	-fes-	8f#\L	-a	4dd\	-a	.	.
8D\	.	.	8ff#'\J	.	8aa'\J	.	.	.	8f#\J	.	8a\J	.	.	.	.	.
*	*	*	*	*	*	*	*	*	*	*	*	*	*	*ij	*	*
4G\	.	.	(8ff#\L	.	8aa\L	.	4G\	-ta-	8f#\L	-ta-	8a\L	su-	4dd\	su	8ff#\L	8aa\L
.	.	.	8ee\)	.	8gg\	.	.	.	8e\J	.	8g\J	.	.	.	8ee\	8gg\
8r	.	.	(8ee\	.	8gg\	.	8G\L	-vit	8e\L	-vit	8g\L	-a	4dd\	-a	8ee\	8gg\
8G#X\	.	.	8dd\J)	.	8ff#\J	.	8G#X\J	.	8d\J	.	8f#\J	.	.	.	8dd\J	8ff#\J
*	*	*	*	*	*	*	*	*	*	*	*	*	*	*Xij	*	*
!	!	!	!	!	!LO:LB:g=original	!	!LO:LB:g=original	!	!	!	!	!	!	!	!	!
=48	=48	=48	=48	=48	=48	=48	=48	=48	=48	=48	=48	=48	=48	=48	=48	=48
8A\L	.	.	(2dd\	.	2ff#\	.	8A\L	e-	2d\	e-	4.a\	I-	4.ff#\	Is-	2dd\	2ff#\
8G#X\	.	.	.	.	.	.	8G#X\	.	.	.	.	.	.	.	.	.
8A\	.	.	.	.	.	.	8A\	.	.	.	.	.	.	.	.	.
8G#\J	.	.	.	.	.	.	8G#\J	.	.	.	8a\	-sra-	8ff#\	-ra-	.	.
!	!	!	!	!	!	!	!	!	!	!	!	!	!LO:LB:g=original	!	!	!
8A\L	.	.	8cc#\L	.	4ee\	.	2A\	-is	4c#\	-is	4a\	-el.	4ee\	-el	4a/	4ee\
8Gn\	.	.	8b\	.	.	.	.	.	.	.	.	.	.	.	.	.
8F#\	.	.	8a\	.	4r	.	.	.	4r	.	4r	.	4r	.	4r	4r
8E\J	.	.	8g\J)	.	.	.	.	.	.	.	.	.	.	.	.	.
!	!	!	!LO:LB:g=original	!	!	!	!	!	!	!	!	!	!	!	!	!LO:LB:g=original
=49	=49	=49	=49	=49	=49	=49	=49	=49	=49	=49	=49	=49	=49	=49	=49	=49
!	!	!	!	!	!	!	!LO:TX:a:t=4	!	!LO:TX:a:t=8	!	!LO:TX:a:i:t=Solo	!	!LO:TX:a:t=8	!	!LO:TX:a:t=8	!LO:TX:a:t=8
8D/L	.	p	(8f#/L	.	4dd\	p	00r	.	00r	.	4d\	Glo-	00r	.	00r	00r
8AA/	.	.	8a/)	.	.	.	.	.	.	.	.	.	.	.	.	.
8D/	.	.	(8f#/	.	8dd\L	.	.	.	.	.	8d\	-ri-	.	.	.	.
8AA/J	.	.	8a/J)	.	8dd\J	.	.	.	.	.	8d\	-a	.	.	.	.
.	.	.	.	.	16qqff#/	.	.	.	.	.	.	.	.	.	.	.
*	*	*	*tremolo	*	*	*	*	*	*	*	*	*	*	*	*	*
8C#/L	.	.	8a/L	.	4ee\	.	.	.	.	.	4e\	Pa-	.	.	.	.
8AA/	.	.	8a/	.	.	.	.	.	.	.	.	.	.	.	.	.
8C#/	.	.	8a/	.	8dd\L	.	.	.	.	.	8d\	-tri	.	.	.	.
8AA/J	.	.	8a/J	.	8ee\J	.	.	.	.	.	8e\	et	.	.	.	.
!LO:LB:g=original	!	!	!	!	!	!	!	!	!	!	!LO:LB:g=original	!	!	!	!	!
=50	=50	=50	=50	=50	=50	=50	=50	=50	=50	=50	=50	=50	=50	=50	=50	=50
*tremolo	*	*	*	*	*	*	*	*	*	*	*	*	*	*	*	*
8D\L	.	.	8f#/L 8a	???	4.ff#\	???	.	.	.	.	4.f#\	fi-	.	.	.	.
8D\	.	.	8f#/ 8a	.	.	.	.	.	.	.	.	.	.	.	.	.
8D\	.	.	8f#/ 8a	.	.	.	.	.	.	.	.	.	.	.	.	.
8D\J	.	.	8f#/J 8a	.	8gg\	.	.	.	.	.	8g\	-li-	.	.	.	.
8F#\L	.	.	8dd\L	.	4aa\	.	.	.	.	.	2a\	-o	.	.	.	.
8F#\	.	.	8dd\	.	.	.	.	.	.	.	.	.	.	.	.	.
8F#\	.	.	8dd\	.	8r	.	.	.	.	.	.	.	.	.	.	.
8F#\J	.	.	8dd\J	.	8dd\	.	.	.	.	.	.	.	.	.	.	.
=51	=51	=51	=51	=51	=51	=51	=51	=51	=51	=51	=51	=51	=51	=51	=51	=51
8G\L	.	.	8dd\L	.	(8bb\L	.	.	.	.	.	4b\	et	.	.	.	.
8G\	.	.	8dd\	.	8bb\	.	.	.	.	.	.	.	.	.	.	.
8G\	.	.	8dd\	.	8bb\	.	.	.	.	.	4b\	Spi-	.	.	.	.
8G\J	.	.	8dd\J	.	8bb\)	.	.	.	.	.	.	.	.	.	.	.
8F#\L	.	.	8dd\L	.	(8aa\	.	.	.	.	.	8a\L	-ri-	.	.	.	.
8F#\	.	.	8dd\	.	8bb\)	.	.	.	.	.	8b\J	.	.	.	.	.
8F#\	.	.	8dd\	.	(8ccc#\	.	.	.	.	.	8cc#\	-tu-	.	.	.	.
8F#\J	.	.	8dd\J	.	8ddd\J)	.	.	.	.	.	8dd\	-i	.	.	.	.
*Xtremolo	*	*	*Xtremolo	*	*	*	*	*	*	*	*	*	*	*	*	*
=52	=52	=52	=52	=52	=52	=52	=52	=52	=52	=52	=52	=52	=52	=52	=52	=52
!LO:TX:a:t=P:problem:mixed beam	!	!	!	!	!	!	!	!	!	!	!	!	!	!	!	!
8E\L	.	.	8cc#\L	.	4.aa\	.	.	.	.	.	4.a\	San-	.	.	.	.
8AA/	.	.	16cc#\L	.	.	.	.	.	.	.	.	.	.	.	.	.
.	.	.	16cc#\JJ	.	.	.	.	.	.	.	.	.	.	.	.	.
8BB/	.	.	8dd\L	.	.	.	.	.	.	.	.	.	.	.	.	.
8C#/J	.	.	8ee\J	.	8gg\	.	.	.	.	.	8g\	.	.	.	.	.
*	*	*	*tremolo	*	*	*	*	*	*	*	*	*	*	*	*	*
8r	.	.	8d/L 8a	.	4ff#\	.	.	.	.	.	4f#\	-cto	.	.	.	.
8D\L	.	.	8d/ 8a	.	.	.	.	.	.	.	.	.	.	.	.	.
8F#\	.	.	8d/ 8a	.	8r	.	.	.	.	.	4r	.	.	.	.	.
8A\J	.	.	8d/J 8a	.	8a/	.	.	.	.	.	.	.	.	.	.	.
*	*	*	*Xtremolo	*	*	*	*	*	*	*	*	*	*	*	*	*
!	!	!	!	!	!LO:LB:g=original	!	!	!	!	!	!	!	!	!	!	!
=53	=53	=53	=53	=53	=53	=53	=53	=53	=53	=53	=53	=53	=53	=53	=53	=53
!	!	!	!	!	!	!	!	!	!	!	!LO:TX:a:t=4.	!	!	!	!	!
8d\L	.	.	(8f#/L	.	8dd\L	.	8d\	si-	00r	.	00r	.	00r	.	00r	00r
8A\	.	.	8a/	.	8dd\J	.	8d\	-cut	.	.	.	.	.	.	.	.
*	*	*	*	*	*tuplet	*	*Xtuplet	*	*	*	*	*	*	*	*	*
!	!	!	!	!	!LO:TUP:a:problem:klamra łukowa	!	!	!	!	!	!	!	!	!	!	!
8d\	.	.	8f#/	.	12dd\L	.	(12d\L	e-	.	.	.	.	.	.	.	.
.	.	.	.	.	12ee\	.	12A\)	.	.	.	.	.	.	.	.	.
8A\J	.	.	8a/J)	.	.	.	.	.	.	.	.	.	.	.	.	.
.	.	.	.	.	12ff#\J	.	12F#\J	.	.	.	.	.	.	.	.	.
8c#\L	.	.	(8e/L	.	4ee\	.	4E\	-rat	.	.	.	.	.	.	.	.
8A\	.	.	8c#/)	.	.	.	.	.	.	.	.	.	.	.	.	.
!	!	!	!	!	!LO:TX:a:t=Problem&colon; brak klamry i 3	!	!	!	!	!	!	!	!	!	!	!
*	*	*	*	*	*Xtuplet	*	*tuplet	*	*	*	*	*	*	*	*	*
8c#\	.	.	(8e/	.	12ee\L	.	12E\L	in	.	.	.	.	.	.	.	.
.	.	.	.	.	12ff#\	.	12F#\	.	.	.	.	.	.	.	.	.
8A\J	.	.	8c#/J)	.	.	.	.	.	.	.	.	.	.	.	.	.
.	.	.	.	.	12gg\J	.	12G\J	prin-	.	.	.	.	.	.	.	.
=54	=54	=54	=54	=54	=54	=54	=54	=54	=54	=54	=54	=54	=54	=54	=54	=54
8d\L	.	.	8a/L	.	4ff#\	.	4.F#\	-ci-	.	.	.	.	.	.	.	.
8D\	.	.	8f#/	.	.	.	.	.	.	.	.	.	.	.	.	.
8D\	.	.	8a/	.	(16ff#\LL	.	.	.	.	.	.	.	.	.	.	.
.	.	.	.	.	16gg\	.	.	.	.	.	.	.	.	.	.	.
8E\J	.	.	8a/J	.	16ff#\	.	8G\	-pi-	.	.	.	.	.	.	.	.
.	.	.	.	.	16gg\JJ)	.	.	.	.	.	.	.	.	.	.	.
!LO:LB:g=original	!	!	!	!	!	!	!	!	!	!	!	!	!	!	!	!
*	*	*	*tremolo	*	*	*	*	*	*	*	*	*	*	*	*	*
8F#\L	.	.	8dd\L	.	4.aa\	.	4A\	-o	.	.	.	.	.	.	.	.
8D\	.	.	8dd\	.	.	.	.	.	.	.	.	.	.	.	.	.
8F#\	.	.	8dd\	.	.	.	8r	.	.	.	.	.	.	.	.	.
8G\J	.	.	8dd\J	.	8bb\	.	8B\	et	.	.	.	.	.	.	.	.
*	*	*	*Xtremolo	*	*	*	*	*	*	*	*	*	*	*	*	*
!	!	!	!LO:LB:g=original	!	!	!	!	!	!	!	!	!	!	!	!	!
=55	=55	=55	=55	=55	=55	=55	=55	=55	=55	=55	=55	=55	=55	=55	=55	=55
4F#\	.	.	4dd\	.	8bb\L	.	8B\L	nunc	.	.	.	.	.	.	.	.
.	.	.	.	.	(8aa\	.	8A\	.	.	.	.	.	.	.	.	.
8r	.	.	8bb\L	.	8ddd\	.	8d\	.	.	.	.	.	.	.	.	.
8D\	.	.	8aa\J	.	8ccc#\J)	.	8c#\J	.	.	.	.	.	.	.	.	.
4G\	.	.	(8gg\L	.	8bb\L	.	(8B\L	et	.	.	.	.	.	.	.	.
.	.	.	8ff#\	.	8aa\	.	8A\J	.	.	.	.	.	.	.	.	.
8r	.	.	8ee\	.	8gg\	.	8G\L	.	.	.	.	.	.	.	.	.
8G#X\	.	.	8dd\J)	.	8ff#\J	.	8F#\J)	.	.	.	.	.	.	.	.	.
!	!	!	!	!	!	!	!LO:LB:g=original	!	!	!	!	!	!	!	!	!
=56	=56	=56	=56	=56	=56	=56	=56	=56	=56	=56	=56	=56	=56	=56	=56	=56
8A\L	.	.	(2dd\	.	(2ff#\	.	(4F#\	sem-	.	.	.	.	.	.	.	.
8G#X\	.	.	.	.	.	.	.	.	.	.	.	.	.	.	.	.
8A\	.	.	.	.	.	.	8A\L	.	.	.	.	.	.	.	.	.
8G#\J	.	.	.	.	.	.	8F#\J	.	.	.	.	.	.	.	.	.
8A\L	.	.	4cc#\)	.	4ee\)	.	4E\)	-per	.	.	.	.	.	.	.	.
8E\J	.	.	.	.	.	.	.	.	.	.	.	.	.	.	.	.
4AA/	.	.	(16dd\LL	.	(16ee\LL	.	4r	.	.	.	.	.	.	.	.	.
.	.	.	16ee\	.	16ff#\	.	.	.	.	.	.	.	.	.	.	.
.	.	.	16ff#\	.	16gg\	.	.	.	.	.	.	.	.	.	.	.
.	.	.	16gg\JJ)	.	16aa\JJ)	.	.	.	.	.	.	.	.	.	.	.
!	!	!	!	!	!LO:LB:g=original	!	!	!	!	!	!	!	!	!	!	!
=57	=57	=57	=57	=57	=57	=57	=57	=57	=57	=57	=57	=57	=57	=57	=57	=57
*	*	*	*^	*	*	*	*	*	*	*	*	*	*	*	*	*
!LO:TX:b:t=Tutti	!	!	!LO:TX:b:t=Tutti	!	!	!	!	!	!	!	!	!	!	!	!	!	!
4A\	7	.	4ee/	4cc#\	.	4gg\	f	4A\	Et	4e\	et	4a\	Et	4gg\	Et	4a/	4ee\
8A\L	_	.	8ee/L	8cc#\L	.	8gg\L	.	4A\	in	4e\	in	4a\	in	4gg\	in	8a/L	8ee\L
8A\J	.	.	8ee/J	8cc#\J	.	8gg\J	.	.	.	.	.	.	.	.	.	8a/J	8ee\J
!	!	!	!	!	!	!	!	!	!	!LO:LB:g=original	!	!	!	!	!	!	!
4A\	.	.	(8ee\L	2ryy	.	8gg\L	.	8A\	sae-	8e\L	sae-	8a\	sae-	8gg\L	sae-	4a/	4ee\
.	x	.	8dd\	.	.	(8ff#\	.	8A\	-cu-	8d\J	-cu-	8a\	-cu-	8ff#\J	.	.	.
4r	.	.	8cc#\	.	.	8ee\	.	4A\	-la	8c#\	-la	4a\	-la	8ee\	-cu-	4r	4r
.	.	.	8b\J)	.	.	8dd\J)	.	.	.	8B\	.	.	.	8dd\	-la	.	.
*	*	*	*v	*v	*	*	*	*	*	*	*	*	*	*	*	*	*
!	!	!	!	!	!	!	!	!	!	!	!	!LO:LB:g=original	!	!	!	!
=58	=58	=58	=58	=58	=58	=58	=58	=58	=58	=58	=58	=58	=58	=58	=58	=58
4G\	4 2	.	4e/ 4a	.	(8dd\L	.	4G\	sae-	4A/	sae-	4a\	sae-	8dd\L	sae-	1r	1r
.	.	.	.	.	8cc#\J)	.	.	.	.	.	.	.	8cc#\J	.	.	.
8G\L	_ _	.	2e/ 2a	.	4.cc#\	.	4G\	-cu-	4A/	-cu-	4a\	-cu-	4cc#\	-cu-	.	.
8G\J	.	.	.	.	.	.	.	.	.	.	.	.	.	.	.	.
8G\L	x	.	.	.	.	.	8G\L	-lo-	8A/L	-lo-	4a\	-lo-	8cc#\L	-lo-	.	.
8F#\	6	.	.	.	8dd\L	.	8F#\J	.	8B/J	.	.	.	8dd\J	.	.	.
8E\	6	.	4f#/ 4a	.	8ee\	.	(8E\	-rum	8c#\L	-rum	4a\	-rum	8ee\L	-rum	.	.
8D\J	.	.	.	.	8ff#\J	.	8D\)	.	8d\J	.	.	.	8ff#\J	.	.	.
!LO:LB:g=original	!	!	!	!	!	!	!	!	!	!	!	!	!	!	!	!
=59	=59	=59	=59	=59	=59	=59	=59	=59	=59	=59	=59	=59	=59	=59	=59	=59
!	!	!	!	!	!	!	!	!	!	!	!LO:TX:a:t=1	!	!	!	!	!
8C#/L	6	.	4a\ 4ee	.	4gg\	.	4C#/	sae-	4e\	et	1r	.	4gg\	et	4r	4r
8AA/	.	.	.	.	.	.	.	.	.	.	.	.	.	.	.	.
8C#/	.	.	(16ee\LL	.	16gg\LL	.	4C#/	-cu-	4e\	in	.	.	4gg\	in	8a/L	8ee\L
.	.	.	16dd\	.	16ff#\	.	.	.	.	.	.	.	.	.	.	.
8AA/J	.	.	16ee\	.	16gg\	.	.	.	.	.	.	.	.	.	8a/J	8ee\J
.	.	.	16ff#\JJ)	.	16aa\JJ	.	.	.	.	.	.	.	.	.	.	.
!	!	!	!LO:LB:g=original	!	!	!	!	!	!	!	!	!	!	!	!	!
8C#\L	6	.	8ee\L	.	8gg\L	.	8C#/L	-lo-	(8e\L	sae-	.	.	8gg\L	sae-	4a/	4ee\
8D\	.	.	8dd\	.	8ff#\	.	8D/J	.	8d\J)	.	.	.	8ff#\J	.	.	.
!	!	!	!	!	!	!	!	!	!	!	!	!	!LO:LB:g=original	!	!	!
8E\	6	.	8cc#\	.	8ee\	.	8E/L	-rum	8c#\	-cu-	.	.	8ee\	-cu-	4r	4r
8F#\J	6	.	8b\J	.	8dd\J	.	8F#/J	.	8B\	-la	.	.	8dd\	-la	.	.
!	!	!	!	!	!	!	!LO:LB:g=original	!	!	!	!	!	!	!	!	!
=60	=60	=60	=60	=60	=60	=60	=60	=60	=60	=60	=60	=60	=60	=60	=60	=60
4G\	4 2	.	(8b\L	.	(8dd\L	.	4G\	et	(8B\L	sae-	4a\	sae-	(8dd\L	sae-	1r	1r
.	.	.	8a\J)	.	8cc#\J	.	.	.	8A\J)	.	.	.	8cc#\J)	.	.	.
!	!	!	!	!	!	!	!	!	!LO:LB:g=original	!	!	!	!	!	!	!
16G\LL	_ _	.	4.a\	.	4.cc#\)	.	8G\L	in	4A\	-cu-	4a\	-cu-	4cc#\	-cu-	.	.
16F#\	.	.	.	.	.	.	.	.	.	.	.	.	.	.	.	.
16G\	.	.	.	.	.	.	8A\J	.	.	.	.	.	.	.	.	.
16A\JJ	x	.	.	.	.	.	.	.	.	.	.	.	.	.	.	.
8G\L	_ _	.	.	.	.	.	8G\L	sae-	4A/	-lo-	8a\L	-lo-	8cc#\L	-lo-	.	.
8F#\J	6	.	8b\L	.	8dd\L	.	8F#\J	.	.	.	8b\J	.	8dd\J	.	.	.
8E\L	6	.	8cc#\	.	8ee\	.	8E\	-cu-	4A/	-rum	8cc#\L	-rum	8ee\L	-rum	.	.
8D\J	.	.	8dd\J	.	8ff#\J	.	8D\	-la	.	.	8dd\J	.	8ff#\J	.	.	.
!	!	!	!	!	!LO:LB:g=original	!	!	!	!	!	!	!	!	!	!	!
=61	=61	=61	=61	=61	=61	=61	=61	=61	=61	=61	=61	=61	=61	=61	=61	=61
*tremolo	*	*	*	*	*	*	*	*	*	*	*	*	*	*	*	*
!LO:SIC:o=:v: takty powtórzone znakiem repetycji	!	!	!LO:SIC:o=:v:takty powtórzone znakiem repetycji	!	!	!	!	!	!	!	!	!	!	!	!LO:SIC:o=:v:takty powtórzone znakiem repetycji	!LO:SIC:o=:v:takty powtórzone znakiem repetycji
8C#/L	5	.	4.ee\	.	4.gg\	.	4C#/	sae-	4A/	sae-	4.g\	sae-	4.ee\	A-	4a/	4ee
8C#/	.	.	.	.	.	.	.	.	.	.	.	.	.	.	.	.
8C#/	.	.	.	.	.	.	4C#/	-cu-	4A/	-cu-	.	.	.	.	4r	4r
8C#/J	.	.	16ff#\LL	.	16aa\LL	.	.	.	.	.	16a\LL	-cu-	16ff#\LL	-men	.	.
.	.	.	16gg\JJ	.	16bb\JJ	.	.	.	.	.	16b\JJ	.	16gg\JJ	.	.	.
*Xtremolo	*	*	*	*	*	*	*	*	*	*	*	*	*	*	*	*
8C#/L	7	.	8gg\L	.	8bb\L	.	4c#\	-lo-	4A/	-lo-	8b\L	-lo-	8gg\L	a-	8r	8r
8C#/	6	.	8ff#\J	.	8aa\	.	.	.	.	.	8a\J	.	8ff#\J	.	8a/L	8ee\L
8AA/	8	.	8ff#\L	.	8aa\	.	4A\	-rum	4c#\	-rum	8a\L	-rum	8ff#\L	-men	8a/	8ee\
8AA/J	7	.	8ee\J	.	8gg\J	.	.	.	.	.	8g\J	.	8ee\J	.	8a/J	8ee\J
=62	=62	=62	=62	=62	=62	=62	=62	=62	=62	=62	=62	=62	=62	=62	=62	=62
*tremolo	*	*	*	*	*	*	*	*	*	*	*	*	*	*	*	*
8E\L	.	.	4.dd\	.	4.ff#\	.	4d\	sae-	4A/	sae-	4.f#\	sae-	4.dd\	a-	4dd\	4ff#\
8E\	.	.	.	.	.	.	.	.	.	.	.	.	.	.	.	.
8E\	.	.	.	.	.	.	4d\	-cu-	4A/	-cu-	.	.	.	.	4r	4r
8E\J	.	.	16ee\LL	.	16gg\LL	.	.	.	.	.	16g\LL	-cu-	16ee\LL	-men	.	.
.	.	.	16ff#\JJ	.	16aa\JJ	.	.	.	.	.	16a\JJ	.	16ff#\JJ	.	.	.
!	!	!	!	!	!	!	!	!	!	!	!	!	!LO:LB:g=original	!	!	!
8E\L	.	.	8ff#\L	.	(8aa\L	.	4d\	-lo-	4A/	-lo-	(8a\L	-lo-	(8ff#\L	a-	8r	8r
8E\	.	.	8ee\	.	8gg\)	.	.	.	.	.	8g\J)	.	8ee\J)	.	8dd\L	8ff#\L
8E\	.	.	8ee\	.	(8gg\	.	4D/	-rum	4A/	-rum	(8g\L	-rum	(8ee\L	-men	8dd\	8ff#\
8E\J	.	.	8a\J 8dd	.	8ff#\J)	.	.	.	.	.	8f#\J)	.	8dd\J)	.	8dd\J	8ff#\J
!	!	!	!	!	!	!	!	!	!	!	!LO:LB:g=original	!	!	!	!	!
=63	=63	=63	=63	=63	=63	=63	=63	=63	=63	=63	=63	=63	=63	=63	=63	=63
8G\L	6	.	8b/	.	4.ee\	.	4G\	a-	4G/	A-	4.b\	a-	4.ee\	A-	4a/	4ee\
8G\	.	.	4b/	.	.	.	.	.	.	.	.	.	.	.	.	.
8G\	.	.	.	.	.	.	4G\	-men	4B/	-men	.	.	.	.	4r	4r
8G\J	.	.	8b/	.	16ff#\LL	.	.	.	.	.	8b\	-men	16ff#\LL	.	.	.
.	.	.	.	.	16gg\JJ	.	.	.	.	.	.	.	16gg\JJ	.	.	.
*Xtremolo	*	*	*	*	*	*	*	*	*	*	*	*	*	*	*	*
!LO:TX:a:t=P:problem:mixed beam	!	!	!	!	!	!	!	!	!	!	!	!	!	!	!	!
!	!	!	!LO:LB:g=original	!	!	!	!	!	!	!	!	!	!	!	!	!
8A\L	.	.	8a/L	.	8ff#\L	.	(4A\	a-	2A/	A-	8a\L	a-	8ff#\L	.	2r	2r
8A\	.	.	8g/	.	8ee\	.	.	.	.	.	8g\	.	8ee\	.	.	.
8AA/	.	.	8f#/	.	8dd\	.	4AA/)	.	.	.	8f#\	.	8dd\	.	.	.
8AA/J	.	.	8e/J	.	8cc#\J	.	.	.	.	.	8e\J	.	8cc#\J	.	.	.
!LO:LB:g=original	!	!	!	!	!	!	!LO:LB:g=original	!	!LO:LB:g=original	!	!	!	!	!	!	!
=64	=64	=64	=64	=64	=64	=64	=64	=64	=64	=64	=64	=64	=64	=64	=64	=64
4D\	.	.	4f#/ 4a	.	4ee\	.	4D\	-men.	4A/	-men	4f#\	-men.	4dd\	-men	4d/	4d/
4r	.	.	16f#/LL	.	16ff#\LL	.	4r	.	4r	.	4r	.	4r	.	8f#/L	8f#/L
.	.	.	16d/	.	16dd\	.	.	.	.	.	.	.	.	.	.	.
.	.	.	16f#/	.	16ff#\	.	.	.	.	.	.	.	.	.	8a/J	8a/J
.	.	.	16a/JJ	.	16aa\JJ	.	.	.	.	.	.	.	.	.	.	.
!	!	!	!	!	!	!	!	!	!	!	!	!	!	!	!LO:LB:g=original	!
!	!	!	!	!	!	!	!	!	!	!	!	!	!	!	!LO:TX:a:t=P:problem:mixed beam	!
4D\	.	.	8dd\L	.	8ddd\L	.	2d\	a-	2r	.	2r	.	2r	.	8dd\L	8dd/L
.	.	.	8a\J	.	8aa\	.	.	.	.	.	.	.	.	.	8a/J	8a/
4r	.	.	8f#/L	.	8ff#\	.	.	.	.	.	.	.	.	.	8f#/L	8f#/
.	.	.	8a/J	.	8aa\J	.	.	.	.	.	.	.	.	.	8a/J	8d/J
!	!	!	!	!	!LO:LB:g=original	!	!	!	!	!	!	!	!	!	!	!
=65	=65	=65	=65	=65	=65	=65	=65	=65	=65	=65	=65	=65	=65	=65	=65	=65
*tremolo	*	*	*	*	*	*	*	*	*	*	*	*	*	*	*	*
8C#/Lyy	5	.	4.ee\yy	.	4.gg\	.	4c#\	-men.	4A/	sae-	4.g\	et	4.ee\	et	4a/yy	4ee\yy
8C#/yy	.	.	.	.	.	.	.	.	.	.	.	.	.	.	.	.
8C#/yy	.	.	.	.	.	.	4r	.	4A/	-cu-	.	.	.	.	4ryy	4ryy
8C#/Jyy	.	.	16ff#\LLyy	.	16aa\LL	.	.	.	.	.	16a\LL	in	16ff#\LL	in	.	.
.	.	.	16gg\JJyy	.	16bb\JJ	.	.	.	.	.	16b\JJ	.	16gg\JJ	.	.	.
*Xtremolo	*	*	*	*	*	*	*	*	*	*	*	*	*	*	*	*
8C#/Lyy	7	.	8gg\Lyy	.	8bb\L	.	4c#\	et	4A/	-lo-	8b\L	sae-	8gg\L	sae-	8ryy	8ryy
8C#/yy	6	.	8ff#\Jyy	.	8aa\	.	.	.	.	.	8a\J	.	8ff#\J	.	8a/Lyy	8ee\Lyy
8AA/yy	8	.	8ff#\Lyy	.	8aa\	.	4A\	in	4c#\	-rum	8a\	-cu-	8ff#\	-cu-	8a/yy	8ee\yy
8AA/Jyy	7	.	8ee\Jyy	.	8gg\J	.	.	.	.	.	8g\	-la	8ee\	-la	8a/Jyy	8ee\Jyy
!	!	!	!	!	!	!	!	!	!	!	!	!	!LO:LB:g=original	!	!	!
=66	=66	=66	=66	=66	=66	=66	=66	=66	=66	=66	=66	=66	=66	=66	=66	=66
*tremolo	*	*	*	*	*	*	*	*	*	*	*	*	*	*	*	*
8E\Lyy	.	.	4.dd\yy	.	4.ff#\	.	4d\	sae-	4A/	sae-	4.f#\	sae-	4.dd\	sae-	4dd\yy	4ff#\yy
8E\yy	.	.	.	.	.	.	.	.	.	.	.	.	.	.	.	.
8E\yy	.	.	.	.	.	.	8d\	-cu-	4A/	-cu-	.	.	.	.	4ryy	4ryy
8E\Jyy	.	.	16ee\LLyy	.	16gg\LL	.	8d\	-la	.	.	16g\LL	-cu-	16ee\LL	-cu-	.	.
.	.	.	16ff#\JJyy	.	16aa\JJ	.	.	.	.	.	16a\JJ	.	16ff#\JJ	.	.	.
8E\Lyy	.	.	8ff#\Lyy	.	(8aa\L	.	4d\	sae-	4A/	-lo-	(8a\L	-lo-	8ff#\L	-lo-	8ryy	8ryy
8E\yy	.	.	8ee\yy	.	8gg\)	.	.	.	.	.	8g\J)	.	8ee\J	.	8dd\Lyy	8ff#\Lyy
8E\yy	.	.	8ee\yy	.	(8gg\	.	4D/	-cu-	4A/	-rum	(8g\L	-rum	8ee\L	-rum	8dd\yy	8ff#\yy
8E\Jyy	.	.	8a\Jyy 8ddyy	.	8ff#\J)	.	.	.	.	.	8f#\J)	.	8dd\J	.	8dd\Jyy	8ff#\Jyy
=67	=67	=67	=67	=67	=67	=67	=67	=67	=67	=67	=67	=67	=67	=67	=67	=67
8G\Lyy	6	.	8b/yy	.	4.ee\	.	4G\	-lo-	4G/	A-	4.b\	a-	4.ee\	A-	4a/yy	4ee\yy
8G\yy	.	.	4b/yy	.	.	.	.	.	.	.	.	.	.	.	.	.
8G\yy	.	.	.	.	.	.	4G\	-rum	4B/	-men	.	.	.	.	4ryy	4ryy
8G\Jyy	.	.	8b/yy	.	16ff#\LL	.	.	.	.	.	8b\	-men	16ff#\LL	-men	.	.
.	.	.	.	.	16gg\JJ	.	.	.	.	.	.	.	16gg\JJ	.	.	.
*Xtremolo	*	*	*	*	*	*	*	*	*	*	*	*	*	*	*	*
8A\Lyy	.	.	8a/Lyy	.	8ff#\L	.	4A\	a-	2A/	A-	8a\L	a-	8ff#\L	a-	2ryy	2ryy
8A\yy	.	.	8g/yy	.	8ee\	.	.	.	.	.	8g\	.	8ee\	.	.	.
8AA/yy	.	.	8f#/yy	.	8dd\	.	4AA/	.	.	.	8f#\	.	8dd\	.	.	.
8AA/Jyy	.	.	8e/Jyy	.	8cc#\J	.	.	.	.	.	8e\J	.	8cc#\J	.	.	.
!	!	!	!	!	!	!	!LO:LB:g=original	!	!LO:LB:g=original	!	!LO:PB:g=original	!	!	!	!	!
=68	=68	=68	=68	=68	=68	=68	=68	=68	=68	=68	=68	=68	=68	=68	=68	=68
4D\yy	.	.	4f#/ 4ayy	.	4dd\	.	4D\	-men.	4A/	-men	4f#\	-men	4dd\	-men	4d/yy	4d/yy
4ryy	.	.	16f#/LLyy	.	16ff#\LL	.	4r	.	4r	.	4r	.	4r	.	8f#/Lyy	8f#/Lyy
.	.	.	16d/yy	.	16dd\	.	.	.	.	.	.	.	.	.	.	.
.	.	.	16f#/yy	.	16ff#\	.	.	.	.	.	.	.	.	.	8a/Jyy	8a/Jyy
.	.	.	16a/JJyy	.	16aa\JJ	.	.	.	.	.	.	.	.	.	.	.
!	!	!	!	!	!	!	!	!	!	!	!	!	!	!	!LO:TX:t=P:problem:mixedbeam	!
4D\yy	.	.	8dd\Lyy	.	8ddd\L	.	2d\	A-	2A/	A-	2r	.	2r	.	8dd\Lyy	8dd/Lyy
.	.	.	8a\Jyy	.	8aa\	.	.	.	.	.	.	.	.	.	8a/Jyy	8a/yy
4ryy	.	.	8f#/Lyy	.	8ff#\	.	.	.	.	.	.	.	.	.	8f#/Lyy	8f#/yy
.	.	.	8a/Jyy	.	8aa\J	.	.	.	.	.	.	.	.	.	8a/Jyy	8d/Jyy
!	!	!	!	!	!LO:LB:g=original	!	!	!	!	!	!	!	!	!	!	!
=69	=69	=69	=69	=69	=69	=69	=69	=69	=69	=69	=69	=69	=69	=69	=69	=69
4D\	.	.	4a\ 4ff#	.	4ddd\	.	4d\	-men	4d\	-men	2a\	a-	2ff#\	A-	4f#/	4dd\
16F#\LL	.	.	8a\L 8ff#	.	8ddd\L	.	4r	.	4r	.	.	.	.	.	4r	4r
16E\	.	.	.	.	.	.	.	.	.	.	.	.	.	.	.	.
16F#\	.	.	8a\J 8ff#	.	8ddd\J	.	.	.	.	.	.	.	.	.	.	.
16A\JJ	.	.	.	.	.	.	.	.	.	.	.	.	.	.	.	.
8d\L	.	.	4a\ 4ff#	.	4ddd\	.	8d\L	A-	2d\	A-	4a\	-men	4ff#\	-men	4f#/	4dd\
8A\	.	.	.	.	.	.	8A\	.	.	.	.	.	.	.	.	.
8F#\	.	.	4a\ 4ff#	.	4ddd\	.	8F#\	.	.	.	4a\	a-	4ff#\	a-	4a/	4dd\
8A\J	.	.	.	.	.	.	8A\J	.	.	.	.	.	.	.	.	.
=70	=70	=70	=70	=70	=70	=70	=70	=70	=70	=70	=70	=70	=70	=70	=70	=70
2D\	.	.	2d\ 2a 2ff#	.	2ff#\ 2ddd	.	2D\	-men.	2d\	-men.	2a\	-men.	2ff#\	-men.	2f#/	2dd\
2r	.	.	2r	.	2r	.	2r	.	2r	.	2r	.	2r	.	2r	2r
==	==	==	==	==	==	==	==	==	==	==	==	==	==	==	==	==
*-	*-	*-	*-	*-	*-	*-	*-	*-	*-	*-	*-	*-	*-	*-	*-	*-
!!!system-decoration: [(s1,s2,)][(s3,s4,s5,s6,)][(s7,s8)][(s9)]
!!!RDF**kern: > = above
!!!RDF**kern: < = below
!!!RDF**dynam: p = piano
!!!RDF***dynam: f = forte.
!!!EED: Leszek Kubiak
!!!EST: 2020-07-14
!!!ENC: Berenika Jozajtis
!!!END: 2020-02-22
!!!RDF**kern: | = vertical stroke
